colour_checker_detection/test_results/20260104_182458/correction_Templated_DSC05274.cube
TITLE "CCM for DSC05274.ARW"
LUT_3D_SIZE 33
0.0000000 0.0000000 0.0000000
0.5776465 0.0000000 0.0000000
1.0000000 0.0000000 0.0000000
1.0000000 0.0000000 0.0000000
1.0000000 0.0000000 0.0000000
1.0000000 0.0000000 0.0000000
1.0000000 0.0000000 0.0000000
1.0000000 0.0000000 0.0000000
1.0000000 0.0000000 0.0000000
1.0000000 0.0000000 0.0000000
1.0000000 0.0000000 0.0000000
1.0000000 0.0000000 0.0000000
1.0000000 0.0000000 0.0000000
1.0000000 0.0000000 0.0000000
1.0000000 0.0000000 0.0000000
1.0000000 0.0000000 0.0000000
1.0000000 0.0000000 0.0000000
1.0000000 0.0000000 0.0000000
1.0000000 0.0000000 0.0000000
1.0000000 0.0000000 0.0000000
1.0000000 0.0000000 0.0000000
1.0000000 0.0000000 0.0000000
1.0000000 0.0000000 0.0000000
1.0000000 0.0000000 0.0000000
1.0000000 0.0000000 0.0000000
1.0000000 0.0000000 0.0000000
1.0000000 0.0000000 0.0000000
1.0000000 0.0000000 0.0000000
1.0000000 0.0000000 0.0000000
1.0000000 0.0000000 0.0000000
1.0000000 0.0000000 0.0000000
1.0000000 0.0000000 0.0000000
1.0000000 0.0000000 0.0000000
0.0000000 0.5882877 0.0000000
0.4507988 0.5466344 0.0000000
1.0000000 0.5049811 0.0000000
1.0000000 0.4633277 0.0000000
1.0000000 0.4216744 0.0000000
1.0000000 0.3800211 0.0000000
1.0000000 0.3383677 0.0000000
1.0000000 0.2967144 0.0000000
1.0000000 0.2550610 0.0000000
1.0000000 0.2134077 0.0000000
1.0000000 0.1717544 0.0000000
1.0000000 0.1301010 0.0000000
1.0000000 0.0884477 0.0000000
1.0000000 0.0467944 0.0000000
1.0000000 0.0051410 0.0000000
1.0000000 0.0000000 0.0000000
1.0000000 0.0000000 0.0000000
1.0000000 0.0000000 0.0000000
1.0000000 0.0000000 0.0000000
1.0000000 0.0000000 0.0000000
1.0000000 0.0000000 0.0000000
1.0000000 0.0000000 0.0000000
1.0000000 0.0000000 0.0000000
1.0000000 0.0000000 0.0000000
1.0000000 0.0000000 0.0000000
1.0000000 0.0000000 0.0000000
1.0000000 0.0000000 0.0000000
1.0000000 0.0000000 0.0000000
1.0000000 0.0000000 0.0000000
1.0000000 0.0000000 0.0000000
1.0000000 0.0000000 0.0000000
1.0000000 0.0000000 0.0000000
1.0000000 0.0000000 0.0000000
0.0000000 1.0000000 0.0000000
0.3239512 1.0000000 0.0000000
0.9015977 1.0000000 0.0000000
1.0000000 1.0000000 0.0000000
1.0000000 1.0000000 0.0000000
1.0000000 0.9683088 0.0000000
1.0000000 0.9266554 0.0000000
1.0000000 0.8850021 0.0000000
1.0000000 0.8433488 0.0000000
1.0000000 0.8016954 0.0000000
1.0000000 0.7600421 0.0000000
1.0000000 0.7183888 0.0000000
1.0000000 0.6767354 0.0000000
1.0000000 0.6350821 0.0000000
1.0000000 0.5934288 0.0000000
1.0000000 0.5517754 0.0000000
1.0000000 0.5101221 0.0000000
1.0000000 0.4684688 0.0000000
1.0000000 0.4268154 0.0000000
1.0000000 0.3851621 0.0000000
1.0000000 0.3435088 0.0000000
1.0000000 0.3018554 0.0000000
1.0000000 0.2602021 0.0000000
1.0000000 0.2185488 0.0000000
1.0000000 0.1768954 0.0000000
1.0000000 0.1352421 0.0000000
1.0000000 0.0935887 0.0000000
1.0000000 0.0519354 0.0000000
1.0000000 0.0102821 0.0000000
1.0000000 0.0000000 0.0000000
1.0000000 0.0000000 0.0000000
1.0000000 0.0000000 0.0000000
1.0000000 0.0000000 0.0000000
0.0000000 1.0000000 0.0000000
0.1971036 1.0000000 0.0000000
0.7747500 1.0000000 0.0000000
1.0000000 1.0000000 0.0000000
1.0000000 1.0000000 0.0000000
1.0000000 1.0000000 0.0000000
1.0000000 1.0000000 0.0000000
1.0000000 1.0000000 0.0000000
1.0000000 1.0000000 0.0000000
1.0000000 1.0000000 0.0000000
1.0000000 1.0000000 0.0000000
1.0000000 1.0000000 0.0000000
1.0000000 1.0000000 0.0000000
1.0000000 1.0000000 0.0000000
1.0000000 1.0000000 0.0000000
1.0000000 1.0000000 0.0000000
1.0000000 1.0000000 0.0000000
1.0000000 1.0000000 0.0000000
1.0000000 1.0000000 0.0000000
1.0000000 0.9734498 0.0000000
1.0000000 0.9317965 0.0000000
1.0000000 0.8901431 0.0000000
1.0000000 0.8484898 0.0000000
1.0000000 0.8068365 0.0000000
1.0000000 0.7651831 0.0000000
1.0000000 0.7235298 0.0000000
1.0000000 0.6818765 0.0000000
1.0000000 0.6402231 0.0000000
1.0000000 0.5985698 0.0000000
1.0000000 0.5569165 0.0000000
1.0000000 0.5152631 0.0000000
1.0000000 0.4736098 0.0000000
1.0000000 0.4319565 0.0000000
0.0000000 1.0000000 0.0000000
0.0702559 1.0000000 0.0000000
0.6479024 1.0000000 0.0000000
1.0000000 1.0000000 0.0000000
1.0000000 1.0000000 0.0000000
1.0000000 1.0000000 0.0000000
1.0000000 1.0000000 0.0000000
1.0000000 1.0000000 0.0000000
1.0000000 1.0000000 0.0000000
1.0000000 1.0000000 0.0000000
1.0000000 1.0000000 0.0000000
1.0000000 1.0000000 0.0000000
1.0000000 1.0000000 0.0000000
1.0000000 1.0000000 0.0000000
1.0000000 1.0000000 0.0000000
1.0000000 1.0000000 0.0000000
1.0000000 1.0000000 0.0000000
1.0000000 1.0000000 0.0000000
1.0000000 1.0000000 0.0000000
1.0000000 1.0000000 0.0000000
1.0000000 1.0000000 0.0000000
1.0000000 1.0000000 0.0000000
1.0000000 1.0000000 0.0000000
1.0000000 1.0000000 0.0000000
1.0000000 1.0000000 0.0000000
1.0000000 1.0000000 0.0000000
1.0000000 1.0000000 0.0000000
1.0000000 1.0000000 0.0000000
1.0000000 1.0000000 0.0000000
1.0000000 1.0000000 0.0000000
1.0000000 1.0000000 0.0000000
1.0000000 1.0000000 0.0000000
1.0000000 1.0000000 0.0000000
0.0000000 1.0000000 0.0000000
0.0000000 1.0000000 0.0000000
0.5210548 1.0000000 0.0000000
1.0000000 1.0000000 0.0000000
1.0000000 1.0000000 0.0000000
1.0000000 1.0000000 0.0000000
1.0000000 1.0000000 0.0000000
1.0000000 1.0000000 0.0000000
1.0000000 1.0000000 0.0000000
1.0000000 1.0000000 0.0000000
1.0000000 1.0000000 0.0000000
1.0000000 1.0000000 0.0000000
1.0000000 1.0000000 0.0000000
1.0000000 1.0000000 0.0000000
1.0000000 1.0000000 0.0000000
1.0000000 1.0000000 0.0000000
1.0000000 1.0000000 0.0000000
1.0000000 1.0000000 0.0000000
1.0000000 1.0000000 0.0000000
1.0000000 1.0000000 0.0000000
1.0000000 1.0000000 0.0000000
1.0000000 1.0000000 0.0000000
1.0000000 1.0000000 0.0000000
1.0000000 1.0000000 0.0000000
1.0000000 1.0000000 0.0000000
1.0000000 1.0000000 0.0000000
1.0000000 1.0000000 0.0000000
1.0000000 1.0000000 0.0000000
1.0000000 1.0000000 0.0000000
1.0000000 1.0000000 0.0000000
1.0000000 1.0000000 0.0000000
1.0000000 1.0000000 0.0000000
1.0000000 1.0000000 0.0000000
0.0000000 1.0000000 0.0000000
0.0000000 1.0000000 0.0000000
0.3942072 1.0000000 0.0000000
0.9718536 1.0000000 0.0000000
1.0000000 1.0000000 0.0000000
1.0000000 1.0000000 0.0000000
1.0000000 1.0000000 0.0000000
1.0000000 1.0000000 0.0000000
1.0000000 1.0000000 0.0000000
1.0000000 1.0000000 0.0000000
1.0000000 1.0000000 0.0000000
1.0000000 1.0000000 0.0000000
1.0000000 1.0000000 0.0000000
1.0000000 1.0000000 0.0000000
1.0000000 1.0000000 0.0000000
1.0000000 1.0000000 0.0000000
1.0000000 1.0000000 0.0000000
1.0000000 1.0000000 0.0000000
1.0000000 1.0000000 0.0000000
1.0000000 1.0000000 0.0000000
1.0000000 1.0000000 0.0000000
1.0000000 1.0000000 0.0000000
1.0000000 1.0000000 0.0000000
1.0000000 1.0000000 0.0000000
1.0000000 1.0000000 0.0000000
1.0000000 1.0000000 0.0000000
1.0000000 1.0000000 0.0000000
1.0000000 1.0000000 0.0000000
1.0000000 1.0000000 0.0000000
1.0000000 1.0000000 0.0000000
1.0000000 1.0000000 0.0000000
1.0000000 1.0000000 0.0000000
1.0000000 1.0000000 0.0000000
0.0000000 1.0000000 0.0000000
0.0000000 1.0000000 0.0000000
0.2673595 1.0000000 0.0000000
0.8450060 1.0000000 0.0000000
1.0000000 1.0000000 0.0000000
1.0000000 1.0000000 0.0000000
1.0000000 1.0000000 0.0000000
1.0000000 1.0000000 0.0000000
1.0000000 1.0000000 0.0000000
1.0000000 1.0000000 0.0000000
1.0000000 1.0000000 0.0000000
1.0000000 1.0000000 0.0000000
1.0000000 1.0000000 0.0000000
1.0000000 1.0000000 0.0000000
1.0000000 1.0000000 0.0000000
1.0000000 1.0000000 0.0000000
1.0000000 1.0000000 0.0000000
1.0000000 1.0000000 0.0000000
1.0000000 1.0000000 0.0000000
1.0000000 1.0000000 0.0000000
1.0000000 1.0000000 0.0000000
1.0000000 1.0000000 0.0000000
1.0000000 1.0000000 0.0000000
1.0000000 1.0000000 0.0000000
1.0000000 1.0000000 0.0000000
1.0000000 1.0000000 0.0000000
1.0000000 1.0000000 0.0000000
1.0000000 1.0000000 0.0000000
1.0000000 1.0000000 0.0000000
1.0000000 1.0000000 0.0000000
1.0000000 1.0000000 0.0000000
1.0000000 1.0000000 0.0000000
1.0000000 1.0000000 0.0000000
0.0000000 1.0000000 0.0000000
0.0000000 1.0000000 0.0000000
0.1405119 1.0000000 0.0000000
0.7181584 1.0000000 0.0000000
1.0000000 1.0000000 0.0000000
1.0000000 1.0000000 0.0000000
1.0000000 1.0000000 0.0000000
1.0000000 1.0000000 0.0000000
1.0000000 1.0000000 0.0000000
1.0000000 1.0000000 0.0000000
1.0000000 1.0000000 0.0000000
1.0000000 1.0000000 0.0000000
1.0000000 1.0000000 0.0000000
1.0000000 1.0000000 0.0000000
1.0000000 1.0000000 0.0000000
1.0000000 1.0000000 0.0000000
1.0000000 1.0000000 0.0000000
1.0000000 1.0000000 0.0000000
1.0000000 1.0000000 0.0000000
1.0000000 1.0000000 0.0000000
1.0000000 1.0000000 0.0000000
1.0000000 1.0000000 0.0000000
1.0000000 1.0000000 0.0000000
1.0000000 1.0000000 0.0000000
1.0000000 1.0000000 0.0000000
1.0000000 1.0000000 0.0000000
1.0000000 1.0000000 0.0000000
1.0000000 1.0000000 0.0000000
1.0000000 1.0000000 0.0000000
1.0000000 1.0000000 0.0000000
1.0000000 1.0000000 0.0000000
1.0000000 1.0000000 0.0000000
1.0000000 1.0000000 0.0000000
0.0000000 1.0000000 0.0000000
0.0000000 1.0000000 0.0000000
0.0136643 1.0000000 0.0000000
0.5913107 1.0000000 0.0000000
1.0000000 1.0000000 0.0000000
1.0000000 1.0000000 0.0000000
1.0000000 1.0000000 0.0000000
1.0000000 1.0000000 0.0000000
1.0000000 1.0000000 0.0000000
1.0000000 1.0000000 0.0000000
1.0000000 1.0000000 0.0000000
1.0000000 1.0000000 0.0000000
1.0000000 1.0000000 0.0000000
1.0000000 1.0000000 0.0000000
1.0000000 1.0000000 0.0000000
1.0000000 1.0000000 0.0000000
1.0000000 1.0000000 0.0000000
1.0000000 1.0000000 0.0000000
1.0000000 1.0000000 0.0000000
1.0000000 1.0000000 0.0000000
1.0000000 1.0000000 0.0000000
1.0000000 1.0000000 0.0000000
1.0000000 1.0000000 0.0000000
1.0000000 1.0000000 0.0000000
1.0000000 1.0000000 0.0000000
1.0000000 1.0000000 0.0000000
1.0000000 1.0000000 0.0000000
1.0000000 1.0000000 0.0000000
1.0000000 1.0000000 0.0000000
1.0000000 1.0000000 0.0000000
1.0000000 1.0000000 0.0000000
1.0000000 1.0000000 0.0000000
1.0000000 1.0000000 0.0000000
0.0000000 1.0000000 0.0000000
0.0000000 1.0000000 0.0000000
0.0000000 1.0000000 0.0000000
0.4644631 1.0000000 0.0000000
1.0000000 1.0000000 0.0000000
1.0000000 1.0000000 0.0000000
1.0000000 1.0000000 0.0000000
1.0000000 1.0000000 0.0000000
1.0000000 1.0000000 0.0000000
1.0000000 1.0000000 0.0000000
1.0000000 1.0000000 0.0000000
1.0000000 1.0000000 0.0000000
1.0000000 1.0000000 0.0000000
1.0000000 1.0000000 0.0000000
1.0000000 1.0000000 0.0000000
1.0000000 1.0000000 0.0000000
1.0000000 1.0000000 0.0000000
1.0000000 1.0000000 0.0000000
1.0000000 1.0000000 0.0000000
1.0000000 1.0000000 0.0000000
1.0000000 1.0000000 0.0000000
1.0000000 1.0000000 0.0000000
1.0000000 1.0000000 0.0000000
1.0000000 1.0000000 0.0000000
1.0000000 1.0000000 0.0000000
1.0000000 1.0000000 0.0000000
1.0000000 1.0000000 0.0000000
1.0000000 1.0000000 0.0000000
1.0000000 1.0000000 0.0000000
1.0000000 1.0000000 0.0000000
1.0000000 1.0000000 0.0000000
1.0000000 1.0000000 0.0000000
1.0000000 1.0000000 0.0000000
0.0000000 1.0000000 0.0000000
0.0000000 1.0000000 0.0000000
0.0000000 1.0000000 0.0000000
0.3376155 1.0000000 0.0000000
0.9152619 1.0000000 0.0000000
1.0000000 1.0000000 0.0000000
1.0000000 1.0000000 0.0000000
1.0000000 1.0000000 0.0000000
1.0000000 1.0000000 0.0000000
1.0000000 1.0000000 0.0000000
1.0000000 1.0000000 0.0000000
1.0000000 1.0000000 0.0000000
1.0000000 1.0000000 0.0000000
1.0000000 1.0000000 0.0000000
1.0000000 1.0000000 0.0000000
1.0000000 1.0000000 0.0000000
1.0000000 1.0000000 0.0000000
1.0000000 1.0000000 0.0000000
1.0000000 1.0000000 0.0000000
1.0000000 1.0000000 0.0000000
1.0000000 1.0000000 0.0000000
1.0000000 1.0000000 0.0000000
1.0000000 1.0000000 0.0000000
1.0000000 1.0000000 0.0000000
1.0000000 1.0000000 0.0000000
1.0000000 1.0000000 0.0000000
1.0000000 1.0000000 0.0000000
1.0000000 1.0000000 0.0000000
1.0000000 1.0000000 0.0000000
1.0000000 1.0000000 0.0000000
1.0000000 1.0000000 0.0000000
1.0000000 1.0000000 0.0000000
1.0000000 1.0000000 0.0000000
0.0000000 1.0000000 0.0000000
0.0000000 1.0000000 0.0000000
0.0000000 1.0000000 0.0000000
0.2107678 1.0000000 0.0000000
0.7884143 1.0000000 0.0000000
1.0000000 1.0000000 0.0000000
1.0000000 1.0000000 0.0000000
1.0000000 1.0000000 0.0000000
1.0000000 1.0000000 0.0000000
1.0000000 1.0000000 0.0000000
1.0000000 1.0000000 0.0000000
1.0000000 1.0000000 0.0000000
1.0000000 1.0000000 0.0000000
1.0000000 1.0000000 0.0000000
1.0000000 1.0000000 0.0000000
1.0000000 1.0000000 0.0000000
1.0000000 1.0000000 0.0000000
1.0000000 1.0000000 0.0000000
1.0000000 1.0000000 0.0000000
1.0000000 1.0000000 0.0000000
1.0000000 1.0000000 0.0000000
1.0000000 1.0000000 0.0000000
1.0000000 1.0000000 0.0000000
1.0000000 1.0000000 0.0000000
1.0000000 1.0000000 0.0000000
1.0000000 1.0000000 0.0000000
1.0000000 1.0000000 0.0000000
1.0000000 1.0000000 0.0000000
1.0000000 1.0000000 0.0000000
1.0000000 1.0000000 0.0000000
1.0000000 1.0000000 0.0000000
1.0000000 1.0000000 0.0000000
1.0000000 1.0000000 0.0000000
0.0000000 1.0000000 0.0000000
0.0000000 1.0000000 0.0000000
0.0000000 1.0000000 0.0000000
0.0839202 1.0000000 0.0000000
0.6615667 1.0000000 0.0000000
1.0000000 1.0000000 0.0000000
1.0000000 1.0000000 0.0000000
1.0000000 1.0000000 0.0000000
1.0000000 1.0000000 0.0000000
1.0000000 1.0000000 0.0000000
1.0000000 1.0000000 0.0000000
1.0000000 1.0000000 0.0000000
1.0000000 1.0000000 0.0000000
1.0000000 1.0000000 0.0000000
1.0000000 1.0000000 0.0000000
1.0000000 1.0000000 0.0000000
1.0000000 1.0000000 0.0000000
1.0000000 1.0000000 0.0000000
1.0000000 1.0000000 0.0000000
1.0000000 1.0000000 0.0000000
1.0000000 1.0000000 0.0000000
1.0000000 1.0000000 0.0000000
1.0000000 1.0000000 0.0000000
1.0000000 1.0000000 0.0000000
1.0000000 1.0000000 0.0000000
1.0000000 1.0000000 0.0000000
1.0000000 1.0000000 0.0000000
1.0000000 1.0000000 0.0000000
1.0000000 1.0000000 0.0000000
1.0000000 1.0000000 0.0000000
1.0000000 1.0000000 0.0000000
1.0000000 1.0000000 0.0000000
1.0000000 1.0000000 0.0000000
0.0000000 1.0000000 0.0000000
0.0000000 1.0000000 0.0000000
0.0000000 1.0000000 0.0000000
0.0000000 1.0000000 0.0000000
0.5347190 1.0000000 0.0000000
1.0000000 1.0000000 0.0000000
1.0000000 1.0000000 0.0000000
1.0000000 1.0000000 0.0000000
1.0000000 1.0000000 0.0000000
1.0000000 1.0000000 0.0000000
1.0000000 1.0000000 0.0000000
1.0000000 1.0000000 0.0000000
1.0000000 1.0000000 0.0000000
1.0000000 1.0000000 0.0000000
1.0000000 1.0000000 0.0000000
1.0000000 1.0000000 0.0000000
1.0000000 1.0000000 0.0000000
1.0000000 1.0000000 0.0000000
1.0000000 1.0000000 0.0000000
1.0000000 1.0000000 0.0000000
1.0000000 1.0000000 0.0000000
1.0000000 1.0000000 0.0000000
1.0000000 1.0000000 0.0000000
1.0000000 1.0000000 0.0000000
1.0000000 1.0000000 0.0000000
1.0000000 1.0000000 0.0000000
1.0000000 1.0000000 0.0000000
1.0000000 1.0000000 0.0000000
1.0000000 1.0000000 0.0000000
1.0000000 1.0000000 0.0000000
1.0000000 1.0000000 0.0000000
1.0000000 1.0000000 0.0000000
1.0000000 1.0000000 0.0000000
0.0000000 1.0000000 0.0000000
0.0000000 1.0000000 0.0000000
0.0000000 1.0000000 0.0000000
0.0000000 1.0000000 0.0000000
0.4078714 1.0000000 0.0000000
0.9855179 1.0000000 0.0000000
1.0000000 1.0000000 0.0000000
1.0000000 1.0000000 0.0000000
1.0000000 1.0000000 0.0000000
1.0000000 1.0000000 0.0000000
1.0000000 1.0000000 0.0000000
1.0000000 1.0000000 0.0000000
1.0000000 1.0000000 0.0000000
1.0000000 1.0000000 0.0000000
1.0000000 1.0000000 0.0000000
1.0000000 1.0000000 0.0000000
1.0000000 1.0000000 0.0000000
1.0000000 1.0000000 0.0000000
1.0000000 1.0000000 0.0000000
1.0000000 1.0000000 0.0000000
1.0000000 1.0000000 0.0000000
1.0000000 1.0000000 0.0000000
1.0000000 1.0000000 0.0000000
1.0000000 1.0000000 0.0000000
1.0000000 1.0000000 0.0000000
1.0000000 1.0000000 0.0000000
1.0000000 1.0000000 0.0000000
1.0000000 1.0000000 0.0000000
1.0000000 1.0000000 0.0000000
1.0000000 1.0000000 0.0000000
1.0000000 1.0000000 0.0000000
1.0000000 1.0000000 0.0000000
1.0000000 1.0000000 0.0000000
0.0000000 1.0000000 0.0000000
0.0000000 1.0000000 0.0000000
0.0000000 1.0000000 0.0000000
0.0000000 1.0000000 0.0000000
0.2810238 1.0000000 0.0000000
0.8586703 1.0000000 0.0000000
1.0000000 1.0000000 0.0000000
1.0000000 1.0000000 0.0000000
1.0000000 1.0000000 0.0000000
1.0000000 1.0000000 0.0000000
1.0000000 1.0000000 0.0000000
1.0000000 1.0000000 0.0000000
1.0000000 1.0000000 0.0000000
1.0000000 1.0000000 0.0000000
1.0000000 1.0000000 0.0000000
1.0000000 1.0000000 0.0000000
1.0000000 1.0000000 0.0000000
1.0000000 1.0000000 0.0000000
1.0000000 1.0000000 0.0000000
1.0000000 1.0000000 0.0000000
1.0000000 1.0000000 0.0000000
1.0000000 1.0000000 0.0000000
1.0000000 1.0000000 0.0000000
1.0000000 1.0000000 0.0000000
1.0000000 1.0000000 0.0000000
1.0000000 1.0000000 0.0000000
1.0000000 1.0000000 0.0000000
1.0000000 1.0000000 0.0000000
1.0000000 1.0000000 0.0000000
1.0000000 1.0000000 0.0000000
1.0000000 1.0000000 0.0000000
1.0000000 1.0000000 0.0000000
1.0000000 1.0000000 0.0000000
0.0000000 1.0000000 0.0000000
0.0000000 1.0000000 0.0000000
0.0000000 1.0000000 0.0000000
0.0000000 1.0000000 0.0000000
0.1541762 1.0000000 0.0000000
0.7318226 1.0000000 0.0000000
1.0000000 1.0000000 0.0000000
1.0000000 1.0000000 0.0000000
1.0000000 1.0000000 0.0000000
1.0000000 1.0000000 0.0000000
1.0000000 1.0000000 0.0000000
1.0000000 1.0000000 0.0000000
1.0000000 1.0000000 0.0000000
1.0000000 1.0000000 0.0000000
1.0000000 1.0000000 0.0000000
1.0000000 1.0000000 0.0000000
1.0000000 1.0000000 0.0000000
1.0000000 1.0000000 0.0000000
1.0000000 1.0000000 0.0000000
1.0000000 1.0000000 0.0000000
1.0000000 1.0000000 0.0000000
1.0000000 1.0000000 0.0000000
1.0000000 1.0000000 0.0000000
1.0000000 1.0000000 0.0000000
1.0000000 1.0000000 0.0000000
1.0000000 1.0000000 0.0000000
1.0000000 1.0000000 0.0000000
1.0000000 1.0000000 0.0000000
1.0000000 1.0000000 0.0000000
1.0000000 1.0000000 0.0000000
1.0000000 1.0000000 0.0000000
1.0000000 1.0000000 0.0000000
1.0000000 1.0000000 0.0000000
0.0000000 1.0000000 0.0000000
0.0000000 1.0000000 0.0000000
0.0000000 1.0000000 0.0000000
0.0000000 1.0000000 0.0000000
0.0273285 1.0000000 0.0000000
0.6049750 1.0000000 0.0000000
1.0000000 1.0000000 0.0000000
1.0000000 1.0000000 0.0000000
1.0000000 1.0000000 0.0000000
1.0000000 1.0000000 0.0000000
1.0000000 1.0000000 0.0000000
1.0000000 1.0000000 0.0000000
1.0000000 1.0000000 0.0000000
1.0000000 1.0000000 0.0000000
1.0000000 1.0000000 0.0000000
1.0000000 1.0000000 0.0000000
1.0000000 1.0000000 0.0000000
1.0000000 1.0000000 0.0000000
1.0000000 1.0000000 0.0000000
1.0000000 1.0000000 0.0000000
1.0000000 1.0000000 0.0000000
1.0000000 1.0000000 0.0000000
1.0000000 1.0000000 0.0000000
1.0000000 1.0000000 0.0000000
1.0000000 1.0000000 0.0000000
1.0000000 1.0000000 0.0000000
1.0000000 1.0000000 0.0000000
1.0000000 1.0000000 0.0000000
1.0000000 1.0000000 0.0000000
1.0000000 1.0000000 0.0000000
1.0000000 1.0000000 0.0000000
1.0000000 1.0000000 0.0000000
1.0000000 1.0000000 0.0000000
0.0000000 1.0000000 0.0000000
0.0000000 1.0000000 0.0000000
0.0000000 1.0000000 0.0000000
0.0000000 1.0000000 0.0000000
0.0000000 1.0000000 0.0000000
0.4781274 1.0000000 0.0000000
1.0000000 1.0000000 0.0000000
1.0000000 1.0000000 0.0000000
1.0000000 1.0000000 0.0000000
1.0000000 1.0000000 0.0000000
1.0000000 1.0000000 0.0000000
1.0000000 1.0000000 0.0000000
1.0000000 1.0000000 0.0000000
1.0000000 1.0000000 0.0000000
1.0000000 1.0000000 0.0000000
1.0000000 1.0000000 0.0000000
1.0000000 1.0000000 0.0000000
1.0000000 1.0000000 0.0000000
1.0000000 1.0000000 0.0000000
1.0000000 1.0000000 0.0000000
1.0000000 1.0000000 0.0000000
1.0000000 1.0000000 0.0000000
1.0000000 1.0000000 0.0000000
1.0000000 1.0000000 0.0000000
1.0000000 1.0000000 0.0000000
1.0000000 1.0000000 0.0000000
1.0000000 1.0000000 0.0000000
1.0000000 1.0000000 0.0000000
1.0000000 1.0000000 0.0000000
1.0000000 1.0000000 0.0000000
1.0000000 1.0000000 0.0000000
1.0000000 1.0000000 0.0000000
1.0000000 1.0000000 0.0000000
0.0000000 1.0000000 0.0000000
0.0000000 1.0000000 0.0000000
0.0000000 1.0000000 0.0000000
0.0000000 1.0000000 0.0000000
0.0000000 1.0000000 0.0000000
0.3512797 1.0000000 0.0000000
0.9289262 1.0000000 0.0000000
1.0000000 1.0000000 0.0000000
1.0000000 1.0000000 0.0000000
1.0000000 1.0000000 0.0000000
1.0000000 1.0000000 0.0000000
1.0000000 1.0000000 0.0000000
1.0000000 1.0000000 0.0000000
1.0000000 1.0000000 0.0000000
1.0000000 1.0000000 0.0000000
1.0000000 1.0000000 0.0000000
1.0000000 1.0000000 0.0000000
1.0000000 1.0000000 0.0000000
1.0000000 1.0000000 0.0000000
1.0000000 1.0000000 0.0000000
1.0000000 1.0000000 0.0000000
1.0000000 1.0000000 0.0000000
1.0000000 1.0000000 0.0000000
1.0000000 1.0000000 0.0000000
1.0000000 1.0000000 0.0000000
1.0000000 1.0000000 0.0000000
1.0000000 1.0000000 0.0000000
1.0000000 1.0000000 0.0000000
1.0000000 1.0000000 0.0000000
1.0000000 1.0000000 0.0000000
1.0000000 1.0000000 0.0000000
1.0000000 1.0000000 0.0000000
1.0000000 1.0000000 0.0000000
0.0000000 1.0000000 0.0000000
0.0000000 1.0000000 0.0000000
0.0000000 1.0000000 0.0000000
0.0000000 1.0000000 0.0000000
0.0000000 1.0000000 0.0000000
0.2244321 1.0000000 0.0000000
0.8020786 1.0000000 0.0000000
1.0000000 1.0000000 0.0000000
1.0000000 1.0000000 0.0000000
1.0000000 1.0000000 0.0000000
1.0000000 1.0000000 0.0000000
1.0000000 1.0000000 0.0000000
1.0000000 1.0000000 0.0000000
1.0000000 1.0000000 0.0000000
1.0000000 1.0000000 0.0000000
1.0000000 1.0000000 0.0000000
1.0000000 1.0000000 0.0000000
1.0000000 1.0000000 0.0000000
1.0000000 1.0000000 0.0000000
1.0000000 1.0000000 0.0000000
1.0000000 1.0000000 0.0000000
1.0000000 1.0000000 0.0000000
1.0000000 1.0000000 0.0000000
1.0000000 1.0000000 0.0000000
1.0000000 1.0000000 0.0000000
1.0000000 1.0000000 0.0000000
1.0000000 1.0000000 0.0000000
1.0000000 1.0000000 0.0000000
1.0000000 1.0000000 0.0000000
1.0000000 1.0000000 0.0000000
1.0000000 1.0000000 0.0000000
1.0000000 1.0000000 0.0000000
1.0000000 1.0000000 0.0000000
0.0000000 1.0000000 0.0000000
0.0000000 1.0000000 0.0000000
0.0000000 1.0000000 0.0000000
0.0000000 1.0000000 0.0000000
0.0000000 1.0000000 0.0000000
0.0975845 1.0000000 0.0000000
0.6752309 1.0000000 0.0000000
1.0000000 1.0000000 0.0000000
1.0000000 1.0000000 0.0000000
1.0000000 1.0000000 0.0000000
1.0000000 1.0000000 0.0000000
1.0000000 1.0000000 0.0000000
1.0000000 1.0000000 0.0000000
1.0000000 1.0000000 0.0000000
1.0000000 1.0000000 0.0000000
1.0000000 1.0000000 0.0000000
1.0000000 1.0000000 0.0000000
1.0000000 1.0000000 0.0000000
1.0000000 1.0000000 0.0000000
1.0000000 1.0000000 0.0000000
1.0000000 1.0000000 0.0000000
1.0000000 1.0000000 0.0000000
1.0000000 1.0000000 0.0000000
1.0000000 1.0000000 0.0000000
1.0000000 1.0000000 0.0000000
1.0000000 1.0000000 0.0000000
1.0000000 1.0000000 0.0000000
1.0000000 1.0000000 0.0000000
1.0000000 1.0000000 0.0000000
1.0000000 1.0000000 0.0000000
1.0000000 1.0000000 0.0000000
1.0000000 1.0000000 0.0000000
1.0000000 1.0000000 0.0000000
0.0000000 1.0000000 0.0000000
0.0000000 1.0000000 0.0000000
0.0000000 1.0000000 0.0000000
0.0000000 1.0000000 0.0000000
0.0000000 1.0000000 0.0000000
0.0000000 1.0000000 0.0000000
0.5483833 1.0000000 0.0000000
1.0000000 1.0000000 0.0000000
1.0000000 1.0000000 0.0000000
1.0000000 1.0000000 0.0000000
1.0000000 1.0000000 0.0000000
1.0000000 1.0000000 0.0000000
1.0000000 1.0000000 0.0000000
1.0000000 1.0000000 0.0000000
1.0000000 1.0000000 0.0000000
1.0000000 1.0000000 0.0000000
1.0000000 1.0000000 0.0000000
1.0000000 1.0000000 0.0000000
1.0000000 1.0000000 0.0000000
1.0000000 1.0000000 0.0000000
1.0000000 1.0000000 0.0000000
1.0000000 1.0000000 0.0000000
1.0000000 1.0000000 0.0000000
1.0000000 1.0000000 0.0000000
1.0000000 1.0000000 0.0000000
1.0000000 1.0000000 0.0000000
1.0000000 1.0000000 0.0000000
1.0000000 1.0000000 0.0000000
1.0000000 1.0000000 0.0000000
1.0000000 1.0000000 0.0000000
1.0000000 1.0000000 0.0000000
1.0000000 1.0000000 0.0000000
1.0000000 1.0000000 0.0000000
0.0000000 1.0000000 0.0000000
0.0000000 1.0000000 0.0000000
0.0000000 1.0000000 0.0000000
0.0000000 1.0000000 0.0000000
0.0000000 1.0000000 0.0000000
0.0000000 1.0000000 0.0000000
