colour_checker_detection/test_results/20260104_182458/correction_Templated_Colorchecker.cube
TITLE "CCM for Colorchecker.RAF"
LUT_3D_SIZE 5
0.0000000 0.0000000 0.0000000
0.3622709 0.0000000 0.0000000
0.7245418 0.0000000 0.0000000
1.0000000 0.0000000 0.0000000
1.0000000 0.0000000 0.0000000
0.0413217 0.4674135 0.0000000
0.4035927 0.4195230 0.0000000
0.7658636 0.3716325 0.0000000
1.0000000 0.3237419 0.0000000
1.0000000 0.2758514 0.0000000
0.0826435 0.9348270 0.0000000
0.4449144 0.8869365 0.0000000
0.8071853 0.8390460 0.0000000
1.0000000 0.7911554 0.0000000
1.0000000 0.7432649 0.0000000
0.1239652 1.0000000 0.0000000
0.4862362 1.0000000 0.0000000
0.8485071 1.0000000 0.0000000
1.0000000 1.0000000 0.0000000
1.0000000 1.0000000 0.0000000
0.1652870 1.0000000 0.0000000
0.5275579 1.0000000 0.0000000
0.8898288 1.0000000 0.0000000
1.0000000 1.0000000 0.0000000
1.0000000 1.0000000 0.0000000
0.0000000 0.0000000 0.3739897
0.2971023 0.0000000 0.3738546
0.6593732 0.0000000 0.3737196
1.0000000 0.0000000 0.3735846
1.0000000 0.0000000 0.3734495
0.0000000 0.3316291 0.2694280
0.3384241 0.2837386 0.2692929
0.7006950 0.2358481 0.2691579
1.0000000 0.1879575 0.2690228
1.0000000 0.1400670 0.2688878
0.0174749 0.7990426 0.1648662
0.3797458 0.7511521 0.1647312
0.7420167 0.7032616 0.1645961
1.0000000 0.6553710 0.1644611
1.0000000 0.6074805 0.1643260
0.0587967 1.0000000 0.0603045
0.4210676 1.0000000 0.0601694
0.7833385 1.0000000 0.0600344
1.0000000 1.0000000 0.0598993
1.0000000 1.0000000 0.0597643
0.1001184 1.0000000 0.0000000
0.4623893 1.0000000 0.0000000
0.8246602 1.0000000 0.0000000
1.0000000 1.0000000 0.0000000
1.0000000 1.0000000 0.0000000
0.0000000 0.0000000 0.7479794
0.2319338 0.0000000 0.7478443
0.5942047 0.0000000 0.7477093
0.9564756 0.0000000 0.7475743
1.0000000 0.0000000 0.7474392
0.0000000 0.1958447 0.6434177
0.2732555 0.1479542 0.6432826
0.6355264 0.1000637 0.6431476
0.9977973 0.0521731 0.6430125
1.0000000 0.0042826 0.6428775
0.0000000 0.6632582 0.5388559
0.3145773 0.6153677 0.5387209
0.6768482 0.5674772 0.5385858
1.0000000 0.5195866 0.5384508
1.0000000 0.4716961 0.5383157
0.0000000 1.0000000 0.4342942
0.3558990 1.0000000 0.4341591
0.7181699 1.0000000 0.4340241
1.0000000 0.9870001 0.4338890
1.0000000 0.9391096 0.4337540
0.0349498 1.0000000 0.3297324
0.3972208 1.0000000 0.3295974
0.7594917 1.0000000 0.3294623
1.0000000 1.0000000 0.3293273
1.0000000 1.0000000 0.3291922
0.0000000 0.0000000 1.0000000
0.1667652 0.0000000 1.0000000
0.5290361 0.0000000 1.0000000
0.8913070 0.0000000 1.0000000
1.0000000 0.0000000 1.0000000
0.0000000 0.0600603 1.0000000
0.2080869 0.0121698 1.0000000
0.5703578 0.0000000 1.0000000
0.9326288 0.0000000 1.0000000
1.0000000 0.0000000 1.0000000
0.0000000 0.5274738 0.9128456
0.2494087 0.4795833 0.9127106
0.6116796 0.4316928 0.9125755
0.9739505 0.3838022 0.9124405
1.0000000 0.3359117 0.9123054
0.0000000 0.9948873 0.8082839
0.2907304 0.9469968 0.8081488
0.6530013 0.8991063 0.8080138
1.0000000 0.8512158 0.8078787
1.0000000 0.8033252 0.8077437
0.0000000 1.0000000 0.7037221
0.3320522 1.0000000 0.7035871
0.6943231 1.0000000 0.7034520
1.0000000 1.0000000 0.7033170
1.0000000 1.0000000 0.7031819
0.0000000 0.0000000 1.0000000
0.1015966 0.0000000 1.0000000
0.4638675 0.0000000 1.0000000
0.8261384 0.0000000 1.0000000
1.0000000 0.0000000 1.0000000
0.0000000 0.0000000 1.0000000
0.1429183 0.0000000 1.0000000
0.5051893 0.0000000 1.0000000
0.8674602 0.0000000 1.0000000
1.0000000 0.0000000 1.0000000
0.0000000 0.3916894 1.0000000
0.1842401 0.3437989 1.0000000
0.5465110 0.2959084 1.0000000
0.9087819 0.2480179 1.0000000
1.0000000 0.2001273 1.0000000
0.0000000 0.8591029 1.0000000
0.2255618 0.8112124 1.0000000
0.5878328 0.7633219 1.0000000
0.9501037 0.7154314 1.0000000
1.0000000 0.6675408 1.0000000
0.0000000 1.0000000 1.0000000
0.2668836 1.0000000 1.0000000
0.6291545 1.0000000 1.0000000
0.9914254 1.0000000 1.0000000
1.0000000 1.0000000 1.0000000
