colour_checker_detection/test_results/20260104_182458/correction_Templated_Colorchecker.cube
TITLE "CCM for Colorchecker.RAF"
LUT_3D_SIZE 9
0.0000000 0.0000000 0.0000000
0.1811355 0.0000000 0.0000000
0.3622709 0.0000000 0.0000000
0.5434064 0.0000000 0.0000000
0.7245418 0.0000000 0.0000000
0.9056773 0.0000000 0.0000000
1.0000000 0.0000000 0.0000000
1.0000000 0.0000000 0.0000000
1.0000000 0.0000000 0.0000000
0.0206609 0.2337068 0.0000000
0.2017963 0.2097615 0.0000000
0.3829318 0.1858162 0.0000000
0.5640672 0.1618710 0.0000000
0.7452027 0.1379257 0.0000000
0.9263382 0.1139804 0.0000000
1.0000000 0.0900352 0.0000000
1.0000000 0.0660899 0.0000000
1.0000000 0.0421447 0.0000000
0.0413217 0.4674135 0.0000000
0.2224572 0.4434682 0.0000000
0.4035927 0.4195230 0.0000000
0.5847281 0.3955777 0.0000000
0.7658636 0.3716325 0.0000000
0.9469990 0.3476872 0.0000000
1.0000000 0.3237419 0.0000000
1.0000000 0.2997967 0.0000000
1.0000000 0.2758514 0.0000000
0.0619826 0.7011203 0.0000000
0.2431181 0.6771750 0.0000000
0.4242535 0.6532297 0.0000000
0.6053890 0.6292845 0.0000000
0.7865245 0.6053392 0.0000000
0.9676599 0.5813939 0.0000000
1.0000000 0.5574487 0.0000000
1.0000000 0.5335034 0.0000000
1.0000000 0.5095582 0.0000000
0.0826435 0.9348270 0.0000000
0.2637790 0.9108817 0.0000000
0.4449144 0.8869365 0.0000000
0.6260499 0.8629912 0.0000000
0.8071853 0.8390460 0.0000000
0.9883208 0.8151007 0.0000000
1.0000000 0.7911554 0.0000000
1.0000000 0.7672102 0.0000000
1.0000000 0.7432649 0.0000000
0.1033044 1.0000000 0.0000000
0.2844398 1.0000000 0.0000000
0.4655753 1.0000000 0.0000000
0.6467107 1.0000000 0.0000000
0.8278462 1.0000000 0.0000000
1.0000000 1.0000000 0.0000000
1.0000000 1.0000000 0.0000000
1.0000000 1.0000000 0.0000000
1.0000000 0.9769717 0.0000000
0.1239652 1.0000000 0.0000000
0.3051007 1.0000000 0.0000000
0.4862362 1.0000000 0.0000000
0.6673716 1.0000000 0.0000000
0.8485071 1.0000000 0.0000000
1.0000000 1.0000000 0.0000000
1.0000000 1.0000000 0.0000000
1.0000000 1.0000000 0.0000000
1.0000000 1.0000000 0.0000000
0.1446261 1.0000000 0.0000000
0.3257616 1.0000000 0.0000000
0.5068970 1.0000000 0.0000000
0.6880325 1.0000000 0.0000000
0.8691680 1.0000000 0.0000000
1.0000000 1.0000000 0.0000000
1.0000000 1.0000000 0.0000000
1.0000000 1.0000000 0.0000000
1.0000000 1.0000000 0.0000000
0.1652870 1.0000000 0.0000000
0.3464225 1.0000000 0.0000000
0.5275579 1.0000000 0.0000000
0.7086934 1.0000000 0.0000000
0.8898288 1.0000000 0.0000000
1.0000000 1.0000000 0.0000000
1.0000000 1.0000000 0.0000000
1.0000000 1.0000000 0.0000000
1.0000000 1.0000000 0.0000000
0.0000000 0.0000000 0.1869948
0.1485512 0.0000000 0.1869273
0.3296866 0.0000000 0.1868598
0.5108221 0.0000000 0.1867923
0.6919575 0.0000000 0.1867248
0.8730930 0.0000000 0.1866572
1.0000000 0.0000000 0.1865897
1.0000000 0.0000000 0.1865222
1.0000000 0.0000000 0.1864547
0.0000000 0.1658146 0.1347140
0.1692120 0.1418693 0.1346465
0.3503475 0.1179240 0.1345789
0.5314830 0.0939788 0.1345114
0.7126184 0.0700335 0.1344439
0.8937539 0.0460882 0.1343764
1.0000000 0.0221430 0.1343088
1.0000000 0.0000000 0.1342413
1.0000000 0.0000000 0.1341738
0.0087375 0.3995213 0.0824331
0.1898729 0.3755760 0.0823656
0.3710084 0.3516308 0.0822981
0.5521438 0.3276855 0.0822305
0.7332793 0.3037403 0.0821630
0.9144147 0.2797950 0.0820955
1.0000000 0.2558497 0.0820280
1.0000000 0.2319045 0.0819604
1.0000000 0.2079592 0.0818929
0.0293983 0.6332281 0.0301522
0.2105338 0.6092828 0.0300847
0.3916692 0.5853375 0.0300172
0.5728047 0.5613923 0.0299497
0.7539402 0.5374470 0.0298821
0.9350756 0.5135017 0.0298146
1.0000000 0.4895565 0.0297471
1.0000000 0.4656112 0.0296796
1.0000000 0.4416660 0.0296121
0.0500592 0.8669348 0.0000000
0.2311947 0.8429895 0.0000000
0.4123301 0.8190443 0.0000000
0.5934656 0.7950990 0.0000000
0.7746010 0.7711538 0.0000000
0.9557365 0.7472085 0.0000000
1.0000000 0.7232632 0.0000000
1.0000000 0.6993180 0.0000000
1.0000000 0.6753727 0.0000000
0.0707201 1.0000000 0.0000000
0.2518555 1.0000000 0.0000000
0.4329910 1.0000000 0.0000000
0.6141265 1.0000000 0.0000000
0.7952619 1.0000000 0.0000000
0.9763974 0.9809153 0.0000000
1.0000000 0.9569700 0.0000000
1.0000000 0.9330247 0.0000000
1.0000000 0.9090795 0.0000000
0.0913810 1.0000000 0.0000000
0.2725164 1.0000000 0.0000000
0.4536519 1.0000000 0.0000000
0.6347873 1.0000000 0.0000000
0.8159228 1.0000000 0.0000000
0.9970582 1.0000000 0.0000000
1.0000000 1.0000000 0.0000000
1.0000000 1.0000000 0.0000000
1.0000000 1.0000000 0.0000000
0.1120418 1.0000000 0.0000000
0.2931773 1.0000000 0.0000000
0.4743127 1.0000000 0.0000000
0.6554482 1.0000000 0.0000000
0.8365837 1.0000000 0.0000000
1.0000000 1.0000000 0.0000000
1.0000000 1.0000000 0.0000000
1.0000000 1.0000000 0.0000000
1.0000000 1.0000000 0.0000000
0.1327027 1.0000000 0.0000000
0.3138382 1.0000000 0.0000000
0.4949736 1.0000000 0.0000000
0.6761091 1.0000000 0.0000000
0.8572445 1.0000000 0.0000000
1.0000000 1.0000000 0.0000000
1.0000000 1.0000000 0.0000000
1.0000000 1.0000000 0.0000000
1.0000000 1.0000000 0.0000000
0.0000000 0.0000000 0.3739897
0.1159669 0.0000000 0.3739222
0.2971023 0.0000000 0.3738546
0.4782378 0.0000000 0.3737871
0.6593732 0.0000000 0.3737196
0.8405087 0.0000000 0.3736521
1.0000000 0.0000000 0.3735846
1.0000000 0.0000000 0.3735170
1.0000000 0.0000000 0.3734495
0.0000000 0.0979224 0.3217088
0.1366278 0.0739771 0.3216413
0.3177632 0.0500318 0.3215738
0.4988987 0.0260866 0.3215063
0.6800341 0.0021413 0.3214387
0.8611696 0.0000000 0.3213712
1.0000000 0.0000000 0.3213037
1.0000000 0.0000000 0.3212362
1.0000000 0.0000000 0.3211686
0.0000000 0.3316291 0.2694280
0.1572886 0.3076838 0.2693604
0.3384241 0.2837386 0.2692929
0.5195595 0.2597933 0.2692254
0.7006950 0.2358481 0.2691579
0.8818305 0.2119028 0.2690903
1.0000000 0.1879575 0.2690228
1.0000000 0.1640123 0.2689553
1.0000000 0.1400670 0.2688878
0.0000000 0.5653359 0.2171471
0.1779495 0.5413906 0.2170796
0.3590850 0.5174453 0.2170120
0.5402204 0.4935001 0.2169445
0.7213559 0.4695548 0.2168770
0.9024913 0.4456095 0.2168095
1.0000000 0.4216643 0.2167419
1.0000000 0.3977190 0.2166744
1.0000000 0.3737738 0.2166069
0.0174749 0.7990426 0.1648662
0.1986104 0.7750974 0.1647987
0.3797458 0.7511521 0.1647312
0.5608813 0.7272068 0.1646636
0.7420167 0.7032616 0.1645961
0.9231522 0.6793163 0.1645286
1.0000000 0.6553710 0.1644611
1.0000000 0.6314258 0.1643936
1.0000000 0.6074805 0.1643260
0.0381358 1.0000000 0.1125853
0.2192713 1.0000000 0.1125178
0.4004067 0.9848588 0.1124503
0.5815422 0.9609136 0.1123828
0.7626776 0.9369683 0.1123153
0.9438131 0.9130231 0.1122477
1.0000000 0.8890778 0.1121802
1.0000000 0.8651325 0.1121127
1.0000000 0.8411873 0.1120452
0.0587967 1.0000000 0.0603045
0.2399321 1.0000000 0.0602370
0.4210676 1.0000000 0.0601694
0.6022030 1.0000000 0.0601019
0.7833385 1.0000000 0.0600344
0.9644740 1.0000000 0.0599669
1.0000000 1.0000000 0.0598993
1.0000000 1.0000000 0.0598318
1.0000000 1.0000000 0.0597643
0.0794575 1.0000000 0.0080236
0.2605930 1.0000000 0.0079561
0.4417285 1.0000000 0.0078886
0.6228639 1.0000000 0.0078210
0.8039994 1.0000000 0.0077535
0.9851348 1.0000000 0.0076860
1.0000000 1.0000000 0.0076185
1.0000000 1.0000000 0.0075509
1.0000000 1.0000000 0.0074834
0.1001184 1.0000000 0.0000000
0.2812539 1.0000000 0.0000000
0.4623893 1.0000000 0.0000000
0.6435248 1.0000000 0.0000000
0.8246602 1.0000000 0.0000000
1.0000000 1.0000000 0.0000000
1.0000000 1.0000000 0.0000000
1.0000000 1.0000000 0.0000000
1.0000000 1.0000000 0.0000000
0.0000000 0.0000000 0.5609845
0.0833826 0.0000000 0.5609170
0.2645180 0.0000000 0.5608495
0.4456535 0.0000000 0.5607820
0.6267890 0.0000000 0.5607144
0.8079244 0.0000000 0.5606469
0.9890599 0.0000000 0.5605794
1.0000000 0.0000000 0.5605119
1.0000000 0.0000000 0.5604444
0.0000000 0.0300302 0.5087037
0.1040435 0.0060849 0.5086362
0.2851789 0.0000000 0.5085686
0.4663144 0.0000000 0.5085011
0.6474498 0.0000000 0.5084336
0.8285853 0.0000000 0.5083661
1.0000000 0.0000000 0.5082985
1.0000000 0.0000000 0.5082310
1.0000000 0.0000000 0.5081635
0.0000000 0.2637369 0.4564228
0.1247043 0.2397916 0.4563553
0.3058398 0.2158464 0.4562878
0.4869753 0.1919011 0.4562202
0.6681107 0.1679559 0.4561527
0.8492462 0.1440106 0.4560852
1.0000000 0.1200653 0.4560177
1.0000000 0.0961201 0.4559501
1.0000000 0.0721748 0.4558826
0.0000000 0.4974437 0.4041419
0.1453652 0.4734984 0.4040744
0.3265007 0.4495531 0.4040069
0.5076361 0.4256079 0.4039394
0.6887716 0.4016626 0.4038718
0.8699070 0.3777174 0.4038043
1.0000000 0.3537721 0.4037368
1.0000000 0.3298268 0.4036693
1.0000000 0.3058816 0.4036017
0.0000000 0.7311504 0.3518611
0.1660261 0.7072052 0.3517935
0.3471615 0.6832599 0.3517260
0.5282970 0.6593146 0.3516585
0.7094325 0.6353694 0.3515910
0.8905679 0.6114241 0.3515234
1.0000000 0.5874788 0.3514559
1.0000000 0.5635336 0.3513884
1.0000000 0.5395883 0.3513209
0.0055515 0.9648572 0.2995802
0.1866870 0.9409119 0.2995127
0.3678224 0.9169666 0.2994452
0.5489579 0.8930214 0.2993776
0.7300933 0.8690761 0.2993101
0.9112288 0.8451309 0.2992426
1.0000000 0.8211856 0.2991751
1.0000000 0.7972403 0.2991075
1.0000000 0.7732951 0.2990400
0.0262124 1.0000000 0.2472993
0.2073478 1.0000000 0.2472318
0.3884833 1.0000000 0.2471643
0.5696188 1.0000000 0.2470968
0.7507542 1.0000000 0.2470292
0.9318897 1.0000000 0.2469617
1.0000000 1.0000000 0.2468942
1.0000000 1.0000000 0.2468267
1.0000000 1.0000000 0.2467591
0.0468733 1.0000000 0.1950185
0.2280087 1.0000000 0.1949509
0.4091442 1.0000000 0.1948834
0.5902796 1.0000000 0.1948159
0.7714151 1.0000000 0.1947484
0.9525505 1.0000000 0.1946808
1.0000000 1.0000000 0.1946133
1.0000000 1.0000000 0.1945458
1.0000000 1.0000000 0.1944783
0.0675341 1.0000000 0.1427376
0.2486696 1.0000000 0.1426701
0.4298050 1.0000000 0.1426025
0.6109405 1.0000000 0.1425350
0.7920760 1.0000000 0.1424675
0.9732114 1.0000000 0.1424000
1.0000000 1.0000000 0.1423324
1.0000000 1.0000000 0.1422649
1.0000000 1.0000000 0.1421974
0.0000000 0.0000000 0.7479794
0.0507983 0.0000000 0.7479119
0.2319338 0.0000000 0.7478443
0.4130692 0.0000000 0.7477768
0.5942047 0.0000000 0.7477093
0.7753401 0.0000000 0.7476418
0.9564756 0.0000000 0.7475743
1.0000000 0.0000000 0.7475067
1.0000000 0.0000000 0.7474392
0.0000000 0.0000000 0.6956985
0.0714592 0.0000000 0.6956310
0.2525946 0.0000000 0.6955635
0.4337301 0.0000000 0.6954960
0.6148655 0.0000000 0.6954284
0.7960010 0.0000000 0.6953609
0.9771365 0.0000000 0.6952934
1.0000000 0.0000000 0.6952259
1.0000000 0.0000000 0.6951583
0.0000000 0.1958447 0.6434177
0.0921200 0.1718995 0.6433501
0.2732555 0.1479542 0.6432826
0.4543910 0.1240089 0.6432151
0.6355264 0.1000637 0.6431476
0.8166619 0.0761184 0.6430800
0.9977973 0.0521731 0.6430125
1.0000000 0.0282279 0.6429450
1.0000000 0.0042826 0.6428775
0.0000000 0.4295515 0.5911368
0.1127809 0.4056062 0.5910693
0.2939164 0.3816609 0.5910017
0.4750518 0.3577157 0.5909342
0.6561873 0.3337704 0.5908667
0.8373228 0.3098252 0.5907992
1.0000000 0.2858799 0.5907316
1.0000000 0.2619346 0.5906641
1.0000000 0.2379894 0.5905966
0.0000000 0.6632582 0.5388559
0.1334418 0.6393130 0.5387884
0.3145773 0.6153677 0.5387209
0.4957127 0.5914224 0.5386533
0.6768482 0.5674772 0.5385858
0.8579836 0.5435319 0.5385183
1.0000000 0.5195866 0.5384508
1.0000000 0.4956414 0.5383832
1.0000000 0.4716961 0.5383157
0.0000000 0.8969650 0.4865750
0.1541027 0.8730197 0.4865075
0.3352381 0.8490744 0.4864400
0.5163736 0.8251292 0.4863725
0.6975090 0.8011839 0.4863050
0.8786445 0.7772387 0.4862374
1.0000000 0.7532934 0.4861699
1.0000000 0.7293481 0.4861024
1.0000000 0.7054029 0.4860349
0.0000000 1.0000000 0.4342942
0.1747635 1.0000000 0.4342267
0.3558990 1.0000000 0.4341591
0.5370345 1.0000000 0.4340916
0.7181699 1.0000000 0.4340241
0.8993054 1.0000000 0.4339566
1.0000000 0.9870001 0.4338890
1.0000000 0.9630549 0.4338215
1.0000000 0.9391096 0.4337540
0.0142890 1.0000000 0.3820133
0.1954244 1.0000000 0.3819458
0.3765599 1.0000000 0.3818783
0.5576953 1.0000000 0.3818107
0.7388308 1.0000000 0.3817432
0.9199663 1.0000000 0.3816757
1.0000000 1.0000000 0.3816082
1.0000000 1.0000000 0.3815406
1.0000000 1.0000000 0.3814731
0.0349498 1.0000000 0.3297324
0.2160853 1.0000000 0.3296649
0.3972208 1.0000000 0.3295974
0.5783562 1.0000000 0.3295299
0.7594917 1.0000000 0.3294623
0.9406271 1.0000000 0.3293948
1.0000000 1.0000000 0.3293273
1.0000000 1.0000000 0.3292598
1.0000000 1.0000000 0.3291922
0.0000000 0.0000000 0.9349742
0.0182140 0.0000000 0.9349067
0.1993495 0.0000000 0.9348392
0.3804849 0.0000000 0.9347717
0.5616204 0.0000000 0.9347041
0.7427558 0.0000000 0.9346366
0.9238913 0.0000000 0.9345691
1.0000000 0.0000000 0.9345016
1.0000000 0.0000000 0.9344341
0.0000000 0.0000000 0.8826934
0.0388749 0.0000000 0.8826258
0.2200103 0.0000000 0.8825583
0.4011458 0.0000000 0.8824908
0.5822813 0.0000000 0.8824233
0.7634167 0.0000000 0.8823558
0.9445522 0.0000000 0.8822882
1.0000000 0.0000000 0.8822207
1.0000000 0.0000000 0.8821532
0.0000000 0.1279525 0.8304125
0.0595358 0.1040073 0.8303450
0.2406712 0.0800620 0.8302775
0.4218067 0.0561167 0.8302099
0.6029421 0.0321715 0.8301424
0.7840776 0.0082262 0.8300749
0.9652130 0.0000000 0.8300074
1.0000000 0.0000000 0.8299398
1.0000000 0.0000000 0.8298723
0.0000000 0.3616593 0.7781316
0.0801966 0.3377140 0.7780641
0.2613321 0.3137687 0.7779966
0.4424675 0.2898235 0.7779291
0.6236030 0.2658782 0.7778615
0.8047385 0.2419330 0.7777940
0.9858739 0.2179877 0.7777265
1.0000000 0.1940424 0.7776590
1.0000000 0.1700972 0.7775914
0.0000000 0.5953660 0.7258508
0.1008575 0.5714208 0.7257832
0.2819930 0.5474755 0.7257157
0.4631284 0.5235302 0.7256482
0.6442639 0.4995850 0.7255807
0.8253993 0.4756397 0.7255131
1.0000000 0.4516944 0.7254456
1.0000000 0.4277492 0.7253781
1.0000000 0.4038039 0.7253106
0.0000000 0.8290728 0.6735699
0.1215184 0.8051275 0.6735024
0.3026538 0.7811822 0.6734348
0.4837893 0.7572370 0.6733673
0.6649248 0.7332917 0.6732998
0.8460602 0.7093465 0.6732323
1.0000000 0.6854012 0.6731648
1.0000000 0.6614559 0.6730972
1.0000000 0.6375107 0.6730297
0.0000000 1.0000000 0.6212890
0.1421793 1.0000000 0.6212215
0.3233147 1.0000000 0.6211540
0.5044502 0.9909437 0.6210865
0.6855856 0.9669985 0.6210189
0.8667211 0.9430532 0.6209514
1.0000000 0.9191080 0.6208839
1.0000000 0.8951627 0.6208164
1.0000000 0.8712174 0.6207488
0.0000000 1.0000000 0.5690082
0.1628401 1.0000000 0.5689406
0.3439756 1.0000000 0.5688731
0.5251110 1.0000000 0.5688056
0.7062465 1.0000000 0.5687381
0.8873820 1.0000000 0.5686705
1.0000000 1.0000000 0.5686030
1.0000000 1.0000000 0.5685355
1.0000000 1.0000000 0.5684680
0.0023655 1.0000000 0.5167273
0.1835010 1.0000000 0.5166598
0.3646365 1.0000000 0.5165922
0.5457719 1.0000000 0.5165247
0.7269074 1.0000000 0.5164572
0.9080428 1.0000000 0.5163897
1.0000000 1.0000000 0.5163221
1.0000000 1.0000000 0.5162546
1.0000000 1.0000000 0.5161871
0.0000000 0.0000000 1.0000000
0.0000000 0.0000000 1.0000000
0.1667652 0.0000000 1.0000000
0.3479006 0.0000000 1.0000000
0.5290361 0.0000000 1.0000000
0.7101715 0.0000000 1.0000000
0.8913070 0.0000000 1.0000000
1.0000000 0.0000000 1.0000000
1.0000000 0.0000000 1.0000000
0.0000000 0.0000000 1.0000000
0.0062906 0.0000000 1.0000000
0.1874260 0.0000000 1.0000000
0.3685615 0.0000000 1.0000000
0.5496970 0.0000000 1.0000000
0.7308324 0.0000000 1.0000000
0.9119679 0.0000000 1.0000000
1.0000000 0.0000000 1.0000000
1.0000000 0.0000000 1.0000000
0.0000000 0.0600603 1.0000000
0.0269515 0.0361151 1.0000000
0.2080869 0.0121698 1.0000000
0.3892224 0.0000000 1.0000000
0.5703578 0.0000000 1.0000000
0.7514933 0.0000000 1.0000000
0.9326288 0.0000000 1.0000000
1.0000000 0.0000000 1.0000000
1.0000000 0.0000000 1.0000000
0.0000000 0.2937671 0.9651265
0.0476123 0.2698218 0.9650590
0.2287478 0.2458765 0.9649914
0.4098833 0.2219313 0.9649239
0.5910187 0.1979860 0.9648564
0.7721542 0.1740408 0.9647889
0.9532896 0.1500955 0.9647213
1.0000000 0.1261502 0.9646538
1.0000000 0.1022050 0.9645863
0.0000000 0.5274738 0.9128456
0.0682732 0.5035286 0.9127781
0.2494087 0.4795833 0.9127106
0.4305441 0.4556380 0.9126430
0.6116796 0.4316928 0.9125755
0.7928150 0.4077475 0.9125080
0.9739505 0.3838022 0.9124405
1.0000000 0.3598570 0.9123729
1.0000000 0.3359117 0.9123054
0.0000000 0.7611806 0.8605647
0.0889341 0.7372353 0.8604972
0.2700695 0.7132901 0.8604297
0.4512050 0.6893448 0.8603622
0.6323405 0.6653995 0.8602946
0.8134759 0.6414543 0.8602271
0.9946114 0.6175090 0.8601596
1.0000000 0.5935637 0.8600921
1.0000000 0.5696185 0.8600246
0.0000000 0.9948873 0.8082839
0.1095950 0.9709421 0.8082163
0.2907304 0.9469968 0.8081488
0.4718659 0.9230515 0.8080813
0.6530013 0.8991063 0.8080138
0.8341368 0.8751610 0.8079463
1.0000000 0.8512158 0.8078787
1.0000000 0.8272705 0.8078112
1.0000000 0.8033252 0.8077437
0.0000000 1.0000000 0.7560030
0.1302558 1.0000000 0.7559355
0.3113913 1.0000000 0.7558680
0.4925268 1.0000000 0.7558004
0.6736622 1.0000000 0.7557329
0.8547977 1.0000000 0.7556654
1.0000000 1.0000000 0.7555979
1.0000000 1.0000000 0.7555303
1.0000000 1.0000000 0.7554628
0.0000000 1.0000000 0.7037221
0.1509167 1.0000000 0.7036546
0.3320522 1.0000000 0.7035871
0.5131876 1.0000000 0.7035196
0.6943231 1.0000000 0.7034520
0.8754585 1.0000000 0.7033845
1.0000000 1.0000000 0.7033170
1.0000000 1.0000000 0.7032495
1.0000000 1.0000000 0.7031819
0.0000000 0.0000000 1.0000000
0.0000000 0.0000000 1.0000000
0.1341809 0.0000000 1.0000000
0.3153163 0.0000000 1.0000000
0.4964518 0.0000000 1.0000000
0.6775873 0.0000000 1.0000000
0.8587227 0.0000000 1.0000000
1.0000000 0.0000000 1.0000000
1.0000000 0.0000000 1.0000000
0.0000000 0.0000000 1.0000000
0.0000000 0.0000000 1.0000000
0.1548418 0.0000000 1.0000000
0.3359772 0.0000000 1.0000000
0.5171127 0.0000000 1.0000000
0.6982481 0.0000000 1.0000000
0.8793836 0.0000000 1.0000000
1.0000000 0.0000000 1.0000000
1.0000000 0.0000000 1.0000000
0.0000000 0.0000000 1.0000000
0.0000000 0.0000000 1.0000000
0.1755026 0.0000000 1.0000000
0.3566381 0.0000000 1.0000000
0.5377735 0.0000000 1.0000000
0.7189090 0.0000000 1.0000000
0.9000445 0.0000000 1.0000000
1.0000000 0.0000000 1.0000000
1.0000000 0.0000000 1.0000000
0.0000000 0.2258749 1.0000000
0.0150281 0.2019296 1.0000000
0.1961635 0.1779843 1.0000000
0.3772990 0.1540391 1.0000000
0.5584344 0.1300938 1.0000000
0.7395699 0.1061486 1.0000000
0.9207053 0.0822033 1.0000000
1.0000000 0.0582580 1.0000000
1.0000000 0.0343128 1.0000000
0.0000000 0.4595816 1.0000000
0.0356889 0.4356364 1.0000000
0.2168244 0.4116911 1.0000000
0.3979598 0.3877458 1.0000000
0.5790953 0.3638006 1.0000000
0.7602308 0.3398553 1.0000000
0.9413662 0.3159101 1.0000000
1.0000000 0.2919648 1.0000000
1.0000000 0.2680195 1.0000000
0.0000000 0.6932884 1.0000000
0.0563498 0.6693431 1.0000000
0.2374853 0.6453979 1.0000000
0.4186207 0.6214526 1.0000000
0.5997562 0.5975073 1.0000000
0.7808916 0.5735621 1.0000000
0.9620271 0.5496168 1.0000000
1.0000000 0.5256715 1.0000000
1.0000000 0.5017263 1.0000000
0.0000000 0.9269951 0.9952787
0.0770107 0.9030499 0.9952112
0.2581461 0.8791046 0.9951437
0.4392816 0.8551593 0.9950761
0.6204170 0.8312141 0.9950086
0.8015525 0.8072688 0.9949411
0.9826880 0.7833236 0.9948736
1.0000000 0.7593783 0.9948061
1.0000000 0.7354330 0.9947385
0.0000000 1.0000000 0.9429979
0.0976716 1.0000000 0.9429303
0.2788070 1.0000000 0.9428628
0.4599425 1.0000000 0.9427953
0.6410779 1.0000000 0.9427278
0.8222134 1.0000000 0.9426602
1.0000000 1.0000000 0.9425927
1.0000000 0.9930850 0.9425252
1.0000000 0.9691398 0.9424577
0.0000000 1.0000000 0.8907170
0.1183324 1.0000000 0.8906495
0.2994679 1.0000000 0.8905819
0.4806033 1.0000000 0.8905144
0.6617388 1.0000000 0.8904469
0.8428743 1.0000000 0.8903794
1.0000000 1.0000000 0.8903118
1.0000000 1.0000000 0.8902443
1.0000000 1.0000000 0.8901768
0.0000000 0.0000000 1.0000000
0.0000000 0.0000000 1.0000000
0.1015966 0.0000000 1.0000000
0.2827321 0.0000000 1.0000000
0.4638675 0.0000000 1.0000000
0.6450030 0.0000000 1.0000000
0.8261384 0.0000000 1.0000000
1.0000000 0.0000000 1.0000000
1.0000000 0.0000000 1.0000000
0.0000000 0.0000000 1.0000000
0.0000000 0.0000000 1.0000000
0.1222575 0.0000000 1.0000000
0.3033929 0.0000000 1.0000000
0.4845284 0.0000000 1.0000000
0.6656638 0.0000000 1.0000000
0.8467993 0.0000000 1.0000000
1.0000000 0.0000000 1.0000000
1.0000000 0.0000000 1.0000000
0.0000000 0.0000000 1.0000000
0.0000000 0.0000000 1.0000000
0.1429183 0.0000000 1.0000000
0.3240538 0.0000000 1.0000000
0.5051893 0.0000000 1.0000000
0.6863247 0.0000000 1.0000000
0.8674602 0.0000000 1.0000000
1.0000000 0.0000000 1.0000000
1.0000000 0.0000000 1.0000000
0.0000000 0.1579827 1.0000000
0.0000000 0.1340374 1.0000000
0.1635792 0.1100922 1.0000000
0.3447147 0.0861469 1.0000000
0.5258501 0.0622016 1.0000000
0.7069856 0.0382564 1.0000000
0.8881210 0.0143111 1.0000000
1.0000000 0.0000000 1.0000000
1.0000000 0.0000000 1.0000000
0.0000000 0.3916894 1.0000000
0.0031046 0.3677442 1.0000000
0.1842401 0.3437989 1.0000000
0.3653756 0.3198536 1.0000000
0.5465110 0.2959084 1.0000000
0.7276465 0.2719631 1.0000000
0.9087819 0.2480179 1.0000000
1.0000000 0.2240726 1.0000000
1.0000000 0.2001273 1.0000000
0.0000000 0.6253962 1.0000000
0.0237655 0.6014509 1.0000000
0.2049010 0.5775057 1.0000000
0.3860364 0.5535604 1.0000000
0.5671719 0.5296151 1.0000000
0.7483073 0.5056699 1.0000000
0.9294428 0.4817246 1.0000000
1.0000000 0.4577793 1.0000000
1.0000000 0.4338341 1.0000000
0.0000000 0.8591029 1.0000000
0.0444264 0.8351577 1.0000000
0.2255618 0.8112124 1.0000000
0.4066973 0.7872671 1.0000000
0.5878328 0.7633219 1.0000000
0.7689682 0.7393766 1.0000000
0.9501037 0.7154314 1.0000000
1.0000000 0.6914861 1.0000000
1.0000000 0.6675408 1.0000000
0.0000000 1.0000000 1.0000000
0.0650873 1.0000000 1.0000000
0.2462227 1.0000000 1.0000000
0.4273582 1.0000000 1.0000000
0.6084936 0.9970286 1.0000000
0.7896291 0.9730834 1.0000000
0.9707645 0.9491381 1.0000000
1.0000000 0.9251928 1.0000000
1.0000000 0.9012476 1.0000000
0.0000000 1.0000000 1.0000000
0.0857481 1.0000000 1.0000000
0.2668836 1.0000000 1.0000000
0.4480191 1.0000000 1.0000000
0.6291545 1.0000000 1.0000000
0.8102900 1.0000000 1.0000000
0.9914254 1.0000000 1.0000000
1.0000000 1.0000000 1.0000000
1.0000000 1.0000000 1.0000000
