colour_checker_detection/test_results/20260104_182458/correction_Templated_Colorchecker.cube
TITLE "CCM for Colorchecker.RAF"
LUT_3D_SIZE 33
0.0000000 0.0000000 0.0000000
0.0452839 0.0000000 0.0000000
0.0905677 0.0000000 0.0000000
0.1358516 0.0000000 0.0000000
0.1811355 0.0000000 0.0000000
0.2264193 0.0000000 0.0000000
0.2717032 0.0000000 0.0000000
0.3169871 0.0000000 0.0000000
0.3622709 0.0000000 0.0000000
0.4075548 0.0000000 0.0000000
0.4528386 0.0000000 0.0000000
0.4981225 0.0000000 0.0000000
0.5434064 0.0000000 0.0000000
0.5886902 0.0000000 0.0000000
0.6339741 0.0000000 0.0000000
0.6792580 0.0000000 0.0000000
0.7245418 0.0000000 0.0000000
0.7698257 0.0000000 0.0000000
0.8151096 0.0000000 0.0000000
0.8603934 0.0000000 0.0000000
0.9056773 0.0000000 0.0000000
0.9509612 0.0000000 0.0000000
0.9962450 0.0000000 0.0000000
1.0000000 0.0000000 0.0000000
1.0000000 0.0000000 0.0000000
1.0000000 0.0000000 0.0000000
1.0000000 0.0000000 0.0000000
1.0000000 0.0000000 0.0000000
1.0000000 0.0000000 0.0000000
1.0000000 0.0000000 0.0000000
1.0000000 0.0000000 0.0000000
1.0000000 0.0000000 0.0000000
1.0000000 0.0000000 0.0000000
0.0051652 0.0584267 0.0000000
0.0504491 0.0524404 0.0000000
0.0957329 0.0464541 0.0000000
0.1410168 0.0404677 0.0000000
0.1863007 0.0344814 0.0000000
0.2315845 0.0284951 0.0000000
0.2768684 0.0225088 0.0000000
0.3221523 0.0165225 0.0000000
0.3674361 0.0105362 0.0000000
0.4127200 0.0045498 0.0000000
0.4580039 0.0000000 0.0000000
0.5032877 0.0000000 0.0000000
0.5485716 0.0000000 0.0000000
0.5938555 0.0000000 0.0000000
0.6391393 0.0000000 0.0000000
0.6844232 0.0000000 0.0000000
0.7297070 0.0000000 0.0000000
0.7749909 0.0000000 0.0000000
0.8202748 0.0000000 0.0000000
0.8655586 0.0000000 0.0000000
0.9108425 0.0000000 0.0000000
0.9561264 0.0000000 0.0000000
1.0000000 0.0000000 0.0000000
1.0000000 0.0000000 0.0000000
1.0000000 0.0000000 0.0000000
1.0000000 0.0000000 0.0000000
1.0000000 0.0000000 0.0000000
1.0000000 0.0000000 0.0000000
1.0000000 0.0000000 0.0000000
1.0000000 0.0000000 0.0000000
1.0000000 0.0000000 0.0000000
1.0000000 0.0000000 0.0000000
1.0000000 0.0000000 0.0000000
0.0103304 0.1168534 0.0000000
0.0556143 0.1108671 0.0000000
0.1008982 0.1048807 0.0000000
0.1461820 0.0988944 0.0000000
0.1914659 0.0929081 0.0000000
0.2367498 0.0869218 0.0000000
0.2820336 0.0809355 0.0000000
0.3273175 0.0749492 0.0000000
0.3726014 0.0689629 0.0000000
0.4178852 0.0629765 0.0000000
0.4631691 0.0569902 0.0000000
0.5084529 0.0510039 0.0000000
0.5537368 0.0450176 0.0000000
0.5990207 0.0390313 0.0000000
0.6443045 0.0330450 0.0000000
0.6895884 0.0270586 0.0000000
0.7348723 0.0210723 0.0000000
0.7801561 0.0150860 0.0000000
0.8254400 0.0090997 0.0000000
0.8707239 0.0031134 0.0000000
0.9160077 0.0000000 0.0000000
0.9612916 0.0000000 0.0000000
1.0000000 0.0000000 0.0000000
1.0000000 0.0000000 0.0000000
1.0000000 0.0000000 0.0000000
1.0000000 0.0000000 0.0000000
1.0000000 0.0000000 0.0000000
1.0000000 0.0000000 0.0000000
1.0000000 0.0000000 0.0000000
1.0000000 0.0000000 0.0000000
1.0000000 0.0000000 0.0000000
1.0000000 0.0000000 0.0000000
1.0000000 0.0000000 0.0000000
0.0154957 0.1752801 0.0000000
0.0607795 0.1692937 0.0000000
0.1060634 0.1633074 0.0000000
0.1513472 0.1573211 0.0000000
0.1966311 0.1513348 0.0000000
0.2419150 0.1453485 0.0000000
0.2871988 0.1393622 0.0000000
0.3324827 0.1333759 0.0000000
0.3777666 0.1273895 0.0000000
0.4230504 0.1214032 0.0000000
0.4683343 0.1154169 0.0000000
0.5136182 0.1094306 0.0000000
0.5589020 0.1034443 0.0000000
0.6041859 0.0974580 0.0000000
0.6494698 0.0914716 0.0000000
0.6947536 0.0854853 0.0000000
0.7400375 0.0794990 0.0000000
0.7853213 0.0735127 0.0000000
0.8306052 0.0675264 0.0000000
0.8758891 0.0615401 0.0000000
0.9211729 0.0555538 0.0000000
0.9664568 0.0495674 0.0000000
1.0000000 0.0435811 0.0000000
1.0000000 0.0375948 0.0000000
1.0000000 0.0316085 0.0000000
1.0000000 0.0256222 0.0000000
1.0000000 0.0196359 0.0000000
1.0000000 0.0136495 0.0000000
1.0000000 0.0076632 0.0000000
1.0000000 0.0016769 0.0000000
1.0000000 0.0000000 0.0000000
1.0000000 0.0000000 0.0000000
1.0000000 0.0000000 0.0000000
0.0206609 0.2337068 0.0000000
0.0659447 0.2277204 0.0000000
0.1112286 0.2217341 0.0000000
0.1565125 0.2157478 0.0000000
0.2017963 0.2097615 0.0000000
0.2470802 0.2037752 0.0000000
0.2923641 0.1977889 0.0000000
0.3376479 0.1918025 0.0000000
0.3829318 0.1858162 0.0000000
0.4282157 0.1798299 0.0000000
0.4734995 0.1738436 0.0000000
0.5187834 0.1678573 0.0000000
0.5640672 0.1618710 0.0000000
0.6093511 0.1558846 0.0000000
0.6546350 0.1498983 0.0000000
0.6999188 0.1439120 0.0000000
0.7452027 0.1379257 0.0000000
0.7904866 0.1319394 0.0000000
0.8357704 0.1259531 0.0000000
0.8810543 0.1199668 0.0000000
0.9263382 0.1139804 0.0000000
0.9716220 0.1079941 0.0000000
1.0000000 0.1020078 0.0000000
1.0000000 0.0960215 0.0000000
1.0000000 0.0900352 0.0000000
1.0000000 0.0840489 0.0000000
1.0000000 0.0780625 0.0000000
1.0000000 0.0720762 0.0000000
1.0000000 0.0660899 0.0000000
1.0000000 0.0601036 0.0000000
1.0000000 0.0541173 0.0000000
1.0000000 0.0481310 0.0000000
1.0000000 0.0421447 0.0000000
0.0258261 0.2921334 0.0000000
0.0711100 0.2861471 0.0000000
0.1163938 0.2801608 0.0000000
0.1616777 0.2741745 0.0000000
0.2069616 0.2681882 0.0000000
0.2522454 0.2622019 0.0000000
0.2975293 0.2562155 0.0000000
0.3428131 0.2502292 0.0000000
0.3880970 0.2442429 0.0000000
0.4333809 0.2382566 0.0000000
0.4786647 0.2322703 0.0000000
0.5239486 0.2262840 0.0000000
0.5692325 0.2202977 0.0000000
0.6145163 0.2143113 0.0000000
0.6598002 0.2083250 0.0000000
0.7050841 0.2023387 0.0000000
0.7503679 0.1963524 0.0000000
0.7956518 0.1903661 0.0000000
0.8409357 0.1843798 0.0000000
0.8862195 0.1783934 0.0000000
0.9315034 0.1724071 0.0000000
0.9767872 0.1664208 0.0000000
1.0000000 0.1604345 0.0000000
1.0000000 0.1544482 0.0000000
1.0000000 0.1484619 0.0000000
1.0000000 0.1424755 0.0000000
1.0000000 0.1364892 0.0000000
1.0000000 0.1305029 0.0000000
1.0000000 0.1245166 0.0000000
1.0000000 0.1185303 0.0000000
1.0000000 0.1125440 0.0000000
1.0000000 0.1065577 0.0000000
1.0000000 0.1005713 0.0000000
0.0309913 0.3505601 0.0000000
0.0762752 0.3445738 0.0000000
0.1215590 0.3385875 0.0000000
0.1668429 0.3326012 0.0000000
0.2121268 0.3266149 0.0000000
0.2574106 0.3206286 0.0000000
0.3026945 0.3146422 0.0000000
0.3479784 0.3086559 0.0000000
0.3932622 0.3026696 0.0000000
0.4385461 0.2966833 0.0000000
0.4838300 0.2906970 0.0000000
0.5291138 0.2847107 0.0000000
0.5743977 0.2787243 0.0000000
0.6196815 0.2727380 0.0000000
0.6649654 0.2667517 0.0000000
0.7102493 0.2607654 0.0000000
0.7555331 0.2547791 0.0000000
0.8008170 0.2487928 0.0000000
0.8461009 0.2428064 0.0000000
0.8913847 0.2368201 0.0000000
0.9366686 0.2308338 0.0000000
0.9819525 0.2248475 0.0000000
1.0000000 0.2188612 0.0000000
1.0000000 0.2128749 0.0000000
1.0000000 0.2068886 0.0000000
1.0000000 0.2009022 0.0000000
1.0000000 0.1949159 0.0000000
1.0000000 0.1889296 0.0000000
1.0000000 0.1829433 0.0000000
1.0000000 0.1769570 0.0000000
1.0000000 0.1709707 0.0000000
1.0000000 0.1649843 0.0000000
1.0000000 0.1589980 0.0000000
0.0361565 0.4089868 0.0000000
0.0814404 0.4030005 0.0000000
0.1267243 0.3970142 0.0000000
0.1720081 0.3910279 0.0000000
0.2172920 0.3850416 0.0000000
0.2625759 0.3790552 0.0000000
0.3078597 0.3730689 0.0000000
0.3531436 0.3670826 0.0000000
0.3984274 0.3610963 0.0000000
0.4437113 0.3551100 0.0000000
0.4889952 0.3491237 0.0000000
0.5342790 0.3431373 0.0000000
0.5795629 0.3371510 0.0000000
0.6248468 0.3311647 0.0000000
0.6701306 0.3251784 0.0000000
0.7154145 0.3191921 0.0000000
0.7606984 0.3132058 0.0000000
0.8059822 0.3072195 0.0000000
0.8512661 0.3012331 0.0000000
0.8965500 0.2952468 0.0000000
0.9418338 0.2892605 0.0000000
0.9871177 0.2832742 0.0000000
1.0000000 0.2772879 0.0000000
1.0000000 0.2713016 0.0000000
1.0000000 0.2653152 0.0000000
1.0000000 0.2593289 0.0000000
1.0000000 0.2533426 0.0000000
1.0000000 0.2473563 0.0000000
1.0000000 0.2413700 0.0000000
1.0000000 0.2353837 0.0000000
1.0000000 0.2293973 0.0000000
1.0000000 0.2234110 0.0000000
1.0000000 0.2174247 0.0000000
0.0413217 0.4674135 0.0000000
0.0866056 0.4614272 0.0000000
0.1318895 0.4554409 0.0000000
0.1771733 0.4494546 0.0000000
0.2224572 0.4434682 0.0000000
0.2677411 0.4374819 0.0000000
0.3130249 0.4314956 0.0000000
0.3583088 0.4255093 0.0000000
0.4035927 0.4195230 0.0000000
0.4488765 0.4135367 0.0000000
0.4941604 0.4075503 0.0000000
0.5394443 0.4015640 0.0000000
0.5847281 0.3955777 0.0000000
0.6300120 0.3895914 0.0000000
0.6752959 0.3836051 0.0000000
0.7205797 0.3776188 0.0000000
0.7658636 0.3716325 0.0000000
0.8111474 0.3656461 0.0000000
0.8564313 0.3596598 0.0000000
0.9017152 0.3536735 0.0000000
0.9469990 0.3476872 0.0000000
0.9922829 0.3417009 0.0000000
1.0000000 0.3357146 0.0000000
1.0000000 0.3297282 0.0000000
1.0000000 0.3237419 0.0000000
1.0000000 0.3177556 0.0000000
1.0000000 0.3117693 0.0000000
1.0000000 0.3057830 0.0000000
1.0000000 0.2997967 0.0000000
1.0000000 0.2938104 0.0000000
1.0000000 0.2878240 0.0000000
1.0000000 0.2818377 0.0000000
1.0000000 0.2758514 0.0000000
0.0464870 0.5258402 0.0000000
0.0917708 0.5198539 0.0000000
0.1370547 0.5138676 0.0000000
0.1823386 0.5078812 0.0000000
0.2276224 0.5018949 0.0000000
0.2729063 0.4959086 0.0000000
0.3181902 0.4899223 0.0000000
0.3634740 0.4839360 0.0000000
0.4087579 0.4779497 0.0000000
0.4540417 0.4719634 0.0000000
0.4993256 0.4659770 0.0000000
0.5446095 0.4599907 0.0000000
0.5898933 0.4540044 0.0000000
0.6351772 0.4480181 0.0000000
0.6804611 0.4420318 0.0000000
0.7257449 0.4360455 0.0000000
0.7710288 0.4300591 0.0000000
0.8163127 0.4240728 0.0000000
0.8615965 0.4180865 0.0000000
0.9068804 0.4121002 0.0000000
0.9521643 0.4061139 0.0000000
0.9974481 0.4001276 0.0000000
1.0000000 0.3941412 0.0000000
1.0000000 0.3881549 0.0000000
1.0000000 0.3821686 0.0000000
1.0000000 0.3761823 0.0000000
1.0000000 0.3701960 0.0000000
1.0000000 0.3642097 0.0000000
1.0000000 0.3582234 0.0000000
1.0000000 0.3522370 0.0000000
1.0000000 0.3462507 0.0000000
1.0000000 0.3402644 0.0000000
1.0000000 0.3342781 0.0000000
0.0516522 0.5842669 0.0000000
0.0969361 0.5782806 0.0000000
0.1422199 0.5722943 0.0000000
0.1875038 0.5663079 0.0000000
0.2327876 0.5603216 0.0000000
0.2780715 0.5543353 0.0000000
0.3233554 0.5483490 0.0000000
0.3686392 0.5423627 0.0000000
0.4139231 0.5363764 0.0000000
0.4592070 0.5303900 0.0000000
0.5044908 0.5244037 0.0000000
0.5497747 0.5184174 0.0000000
0.5950586 0.5124311 0.0000000
0.6403424 0.5064448 0.0000000
0.6856263 0.5004585 0.0000000
0.7309102 0.4944721 0.0000000
0.7761940 0.4884858 0.0000000
0.8214779 0.4824995 0.0000000
0.8667617 0.4765132 0.0000000
0.9120456 0.4705269 0.0000000
0.9573295 0.4645406 0.0000000
1.0000000 0.4585543 0.0000000
1.0000000 0.4525679 0.0000000
1.0000000 0.4465816 0.0000000
1.0000000 0.4405953 0.0000000
1.0000000 0.4346090 0.0000000
1.0000000 0.4286227 0.0000000
1.0000000 0.4226364 0.0000000
1.0000000 0.4166500 0.0000000
1.0000000 0.4106637 0.0000000
1.0000000 0.4046774 0.0000000
1.0000000 0.3986911 0.0000000
1.0000000 0.3927048 0.0000000
0.0568174 0.6426936 0.0000000
0.1021013 0.6367073 0.0000000
0.1473851 0.6307209 0.0000000
0.1926690 0.6247346 0.0000000
0.2379529 0.6187483 0.0000000
0.2832367 0.6127620 0.0000000
0.3285206 0.6067757 0.0000000
0.3738045 0.6007894 0.0000000
0.4190883 0.5948030 0.0000000
0.4643722 0.5888167 0.0000000
0.5096560 0.5828304 0.0000000
0.5549399 0.5768441 0.0000000
0.6002238 0.5708578 0.0000000
0.6455076 0.5648715 0.0000000
0.6907915 0.5588851 0.0000000
0.7360754 0.5528988 0.0000000
0.7813592 0.5469125 0.0000000
0.8266431 0.5409262 0.0000000
0.8719270 0.5349399 0.0000000
0.9172108 0.5289536 0.0000000
0.9624947 0.5229673 0.0000000
1.0000000 0.5169809 0.0000000
1.0000000 0.5109946 0.0000000
1.0000000 0.5050083 0.0000000
1.0000000 0.4990220 0.0000000
1.0000000 0.4930357 0.0000000
1.0000000 0.4870494 0.0000000
1.0000000 0.4810630 0.0000000
1.0000000 0.4750767 0.0000000
1.0000000 0.4690904 0.0000000
1.0000000 0.4631041 0.0000000
1.0000000 0.4571178 0.0000000
1.0000000 0.4511315 0.0000000
0.0619826 0.7011203 0.0000000
0.1072665 0.6951339 0.0000000
0.1525504 0.6891476 0.0000000
0.1978342 0.6831613 0.0000000
0.2431181 0.6771750 0.0000000
0.2884019 0.6711887 0.0000000
0.3336858 0.6652024 0.0000000
0.3789697 0.6592160 0.0000000
0.4242535 0.6532297 0.0000000
0.4695374 0.6472434 0.0000000
0.5148213 0.6412571 0.0000000
0.5601051 0.6352708 0.0000000
0.6053890 0.6292845 0.0000000
0.6506729 0.6232982 0.0000000
0.6959567 0.6173118 0.0000000
0.7412406 0.6113255 0.0000000
0.7865245 0.6053392 0.0000000
0.8318083 0.5993529 0.0000000
0.8770922 0.5933666 0.0000000
0.9223760 0.5873803 0.0000000
0.9676599 0.5813939 0.0000000
1.0000000 0.5754076 0.0000000
1.0000000 0.5694213 0.0000000
1.0000000 0.5634350 0.0000000
1.0000000 0.5574487 0.0000000
1.0000000 0.5514624 0.0000000
1.0000000 0.5454760 0.0000000
1.0000000 0.5394897 0.0000000
1.0000000 0.5335034 0.0000000
1.0000000 0.5275171 0.0000000
1.0000000 0.5215308 0.0000000
1.0000000 0.5155445 0.0000000
1.0000000 0.5095582 0.0000000
0.0671478 0.7595469 0.0000000
0.1124317 0.7535606 0.0000000
0.1577156 0.7475743 0.0000000
0.2029994 0.7415880 0.0000000
0.2482833 0.7356017 0.0000000
0.2935672 0.7296154 0.0000000
0.3388510 0.7236291 0.0000000
0.3841349 0.7176427 0.0000000
0.4294188 0.7116564 0.0000000
0.4747026 0.7056701 0.0000000
0.5199865 0.6996838 0.0000000
0.5652704 0.6936975 0.0000000
0.6105542 0.6877112 0.0000000
0.6558381 0.6817248 0.0000000
0.7011219 0.6757385 0.0000000
0.7464058 0.6697522 0.0000000
0.7916897 0.6637659 0.0000000
0.8369735 0.6577796 0.0000000
0.8822574 0.6517933 0.0000000
0.9275413 0.6458069 0.0000000
0.9728251 0.6398206 0.0000000
1.0000000 0.6338343 0.0000000
1.0000000 0.6278480 0.0000000
1.0000000 0.6218617 0.0000000
1.0000000 0.6158754 0.0000000
1.0000000 0.6098891 0.0000000
1.0000000 0.6039027 0.0000000
1.0000000 0.5979164 0.0000000
1.0000000 0.5919301 0.0000000
1.0000000 0.5859438 0.0000000
1.0000000 0.5799575 0.0000000
1.0000000 0.5739712 0.0000000
1.0000000 0.5679848 0.0000000
0.0723131 0.8179736 0.0000000
0.1175969 0.8119873 0.0000000
0.1628808 0.8060010 0.0000000
0.2081647 0.8000147 0.0000000
0.2534485 0.7940284 0.0000000
0.2987324 0.7880421 0.0000000
0.3440162 0.7820557 0.0000000
0.3893001 0.7760694 0.0000000
0.4345840 0.7700831 0.0000000
0.4798678 0.7640968 0.0000000
0.5251517 0.7581105 0.0000000
0.5704356 0.7521242 0.0000000
0.6157194 0.7461378 0.0000000
0.6610033 0.7401515 0.0000000
0.7062872 0.7341652 0.0000000
0.7515710 0.7281789 0.0000000
0.7968549 0.7221926 0.0000000
0.8421388 0.7162063 0.0000000
0.8874226 0.7102200 0.0000000
0.9327065 0.7042336 0.0000000
0.9779903 0.6982473 0.0000000
1.0000000 0.6922610 0.0000000
1.0000000 0.6862747 0.0000000
1.0000000 0.6802884 0.0000000
1.0000000 0.6743021 0.0000000
1.0000000 0.6683157 0.0000000
1.0000000 0.6623294 0.0000000
1.0000000 0.6563431 0.0000000
1.0000000 0.6503568 0.0000000
1.0000000 0.6443705 0.0000000
1.0000000 0.6383842 0.0000000
1.0000000 0.6323978 0.0000000
1.0000000 0.6264115 0.0000000
0.0774783 0.8764003 0.0000000
0.1227621 0.8704140 0.0000000
0.1680460 0.8644277 0.0000000
0.2133299 0.8584414 0.0000000
0.2586137 0.8524551 0.0000000
0.3038976 0.8464687 0.0000000
0.3491815 0.8404824 0.0000000
0.3944653 0.8344961 0.0000000
0.4397492 0.8285098 0.0000000
0.4850331 0.8225235 0.0000000
0.5303169 0.8165372 0.0000000
0.5756008 0.8105508 0.0000000
0.6208847 0.8045645 0.0000000
0.6661685 0.7985782 0.0000000
0.7114524 0.7925919 0.0000000
0.7567362 0.7866056 0.0000000
0.8020201 0.7806193 0.0000000
0.8473040 0.7746330 0.0000000
0.8925878 0.7686466 0.0000000
0.9378717 0.7626603 0.0000000
0.9831556 0.7566740 0.0000000
1.0000000 0.7506877 0.0000000
1.0000000 0.7447014 0.0000000
1.0000000 0.7387151 0.0000000
1.0000000 0.7327287 0.0000000
1.0000000 0.7267424 0.0000000
1.0000000 0.7207561 0.0000000
1.0000000 0.7147698 0.0000000
1.0000000 0.7087835 0.0000000
1.0000000 0.7027972 0.0000000
1.0000000 0.6968109 0.0000000
1.0000000 0.6908245 0.0000000
1.0000000 0.6848382 0.0000000
0.0826435 0.9348270 0.0000000
0.1279274 0.9288407 0.0000000
0.1732112 0.9228544 0.0000000
0.2184951 0.9168681 0.0000000
0.2637790 0.9108817 0.0000000
0.3090628 0.9048954 0.0000000
0.3543467 0.8989091 0.0000000
0.3996305 0.8929228 0.0000000
0.4449144 0.8869365 0.0000000
0.4901983 0.8809502 0.0000000
0.5354821 0.8749639 0.0000000
0.5807660 0.8689775 0.0000000
0.6260499 0.8629912 0.0000000
0.6713337 0.8570049 0.0000000
0.7166176 0.8510186 0.0000000
0.7619015 0.8450323 0.0000000
0.8071853 0.8390460 0.0000000
0.8524692 0.8330596 0.0000000
0.8977531 0.8270733 0.0000000
0.9430369 0.8210870 0.0000000
0.9883208 0.8151007 0.0000000
1.0000000 0.8091144 0.0000000
1.0000000 0.8031281 0.0000000
1.0000000 0.7971417 0.0000000
1.0000000 0.7911554 0.0000000
1.0000000 0.7851691 0.0000000
1.0000000 0.7791828 0.0000000
1.0000000 0.7731965 0.0000000
1.0000000 0.7672102 0.0000000
1.0000000 0.7612239 0.0000000
1.0000000 0.7552375 0.0000000
1.0000000 0.7492512 0.0000000
1.0000000 0.7432649 0.0000000
0.0878087 0.9932537 0.0000000
0.1330926 0.9872674 0.0000000
0.1783764 0.9812811 0.0000000
0.2236603 0.9752948 0.0000000
0.2689442 0.9693084 0.0000000
0.3142280 0.9633221 0.0000000
0.3595119 0.9573358 0.0000000
0.4047958 0.9513495 0.0000000
0.4500796 0.9453632 0.0000000
0.4953635 0.9393769 0.0000000
0.5406474 0.9333905 0.0000000
0.5859312 0.9274042 0.0000000
0.6312151 0.9214179 0.0000000
0.6764990 0.9154316 0.0000000
0.7217828 0.9094453 0.0000000
0.7670667 0.9034590 0.0000000
0.8123505 0.8974726 0.0000000
0.8576344 0.8914863 0.0000000
0.9029183 0.8855000 0.0000000
0.9482021 0.8795137 0.0000000
0.9934860 0.8735274 0.0000000
1.0000000 0.8675411 0.0000000
1.0000000 0.8615548 0.0000000
1.0000000 0.8555684 0.0000000
1.0000000 0.8495821 0.0000000
1.0000000 0.8435958 0.0000000
1.0000000 0.8376095 0.0000000
1.0000000 0.8316232 0.0000000
1.0000000 0.8256369 0.0000000
1.0000000 0.8196505 0.0000000
1.0000000 0.8136642 0.0000000
1.0000000 0.8076779 0.0000000
1.0000000 0.8016916 0.0000000
0.0929739 1.0000000 0.0000000
0.1382578 1.0000000 0.0000000
0.1835417 1.0000000 0.0000000
0.2288255 1.0000000 0.0000000
0.2741094 1.0000000 0.0000000
0.3193933 1.0000000 0.0000000
0.3646771 1.0000000 0.0000000
0.4099610 1.0000000 0.0000000
0.4552449 1.0000000 0.0000000
0.5005287 0.9978035 0.0000000
0.5458126 0.9918172 0.0000000
0.5910964 0.9858309 0.0000000
0.6363803 0.9798446 0.0000000
0.6816642 0.9738583 0.0000000
0.7269480 0.9678720 0.0000000
0.7722319 0.9618857 0.0000000
0.8175158 0.9558993 0.0000000
0.8627996 0.9499130 0.0000000
0.9080835 0.9439267 0.0000000
0.9533674 0.9379404 0.0000000
0.9986512 0.9319541 0.0000000
1.0000000 0.9259678 0.0000000
1.0000000 0.9199814 0.0000000
1.0000000 0.9139951 0.0000000
1.0000000 0.9080088 0.0000000
1.0000000 0.9020225 0.0000000
1.0000000 0.8960362 0.0000000
1.0000000 0.8900499 0.0000000
1.0000000 0.8840635 0.0000000
1.0000000 0.8780772 0.0000000
1.0000000 0.8720909 0.0000000
1.0000000 0.8661046 0.0000000
1.0000000 0.8601183 0.0000000
0.0981392 1.0000000 0.0000000
0.1434230 1.0000000 0.0000000
0.1887069 1.0000000 0.0000000
0.2339907 1.0000000 0.0000000
0.2792746 1.0000000 0.0000000
0.3245585 1.0000000 0.0000000
0.3698423 1.0000000 0.0000000
0.4151262 1.0000000 0.0000000
0.4604101 1.0000000 0.0000000
0.5056939 1.0000000 0.0000000
0.5509778 1.0000000 0.0000000
0.5962617 1.0000000 0.0000000
0.6415455 1.0000000 0.0000000
0.6868294 1.0000000 0.0000000
0.7321133 1.0000000 0.0000000
0.7773971 1.0000000 0.0000000
0.8226810 1.0000000 0.0000000
0.8679648 1.0000000 0.0000000
0.9132487 1.0000000 0.0000000
0.9585326 0.9963671 0.0000000
1.0000000 0.9903808 0.0000000
1.0000000 0.9843944 0.0000000
1.0000000 0.9784081 0.0000000
1.0000000 0.9724218 0.0000000
1.0000000 0.9664355 0.0000000
1.0000000 0.9604492 0.0000000
1.0000000 0.9544629 0.0000000
1.0000000 0.9484766 0.0000000
1.0000000 0.9424902 0.0000000
1.0000000 0.9365039 0.0000000
1.0000000 0.9305176 0.0000000
1.0000000 0.9245313 0.0000000
1.0000000 0.9185450 0.0000000
0.1033044 1.0000000 0.0000000
0.1485882 1.0000000 0.0000000
0.1938721 1.0000000 0.0000000
0.2391560 1.0000000 0.0000000
0.2844398 1.0000000 0.0000000
0.3297237 1.0000000 0.0000000
0.3750076 1.0000000 0.0000000
0.4202914 1.0000000 0.0000000
0.4655753 1.0000000 0.0000000
0.5108592 1.0000000 0.0000000
0.5561430 1.0000000 0.0000000
0.6014269 1.0000000 0.0000000
0.6467107 1.0000000 0.0000000
0.6919946 1.0000000 0.0000000
0.7372785 1.0000000 0.0000000
0.7825623 1.0000000 0.0000000
0.8278462 1.0000000 0.0000000
0.8731301 1.0000000 0.0000000
0.9184139 1.0000000 0.0000000
0.9636978 1.0000000 0.0000000
1.0000000 1.0000000 0.0000000
1.0000000 1.0000000 0.0000000
1.0000000 1.0000000 0.0000000
1.0000000 1.0000000 0.0000000
1.0000000 1.0000000 0.0000000
1.0000000 1.0000000 0.0000000
1.0000000 1.0000000 0.0000000
1.0000000 1.0000000 0.0000000
1.0000000 1.0000000 0.0000000
1.0000000 0.9949306 0.0000000
1.0000000 0.9889443 0.0000000
1.0000000 0.9829580 0.0000000
1.0000000 0.9769717 0.0000000
0.1084696 1.0000000 0.0000000
0.1537535 1.0000000 0.0000000
0.1990373 1.0000000 0.0000000
0.2443212 1.0000000 0.0000000
0.2896051 1.0000000 0.0000000
0.3348889 1.0000000 0.0000000
0.3801728 1.0000000 0.0000000
0.4254566 1.0000000 0.0000000
0.4707405 1.0000000 0.0000000
0.5160244 1.0000000 0.0000000
0.5613082 1.0000000 0.0000000
0.6065921 1.0000000 0.0000000
0.6518760 1.0000000 0.0000000
0.6971598 1.0000000 0.0000000
0.7424437 1.0000000 0.0000000
0.7877276 1.0000000 0.0000000
0.8330114 1.0000000 0.0000000
0.8782953 1.0000000 0.0000000
0.9235792 1.0000000 0.0000000
0.9688630 1.0000000 0.0000000
1.0000000 1.0000000 0.0000000
1.0000000 1.0000000 0.0000000
1.0000000 1.0000000 0.0000000
1.0000000 1.0000000 0.0000000
1.0000000 1.0000000 0.0000000
1.0000000 1.0000000 0.0000000
1.0000000 1.0000000 0.0000000
1.0000000 1.0000000 0.0000000
1.0000000 1.0000000 0.0000000
1.0000000 1.0000000 0.0000000
1.0000000 1.0000000 0.0000000
1.0000000 1.0000000 0.0000000
1.0000000 1.0000000 0.0000000
0.1136348 1.0000000 0.0000000
0.1589187 1.0000000 0.0000000
0.2042025 1.0000000 0.0000000
0.2494864 1.0000000 0.0000000
0.2947703 1.0000000 0.0000000
0.3400541 1.0000000 0.0000000
0.3853380 1.0000000 0.0000000
0.4306219 1.0000000 0.0000000
0.4759057 1.0000000 0.0000000
0.5211896 1.0000000 0.0000000
0.5664735 1.0000000 0.0000000
0.6117573 1.0000000 0.0000000
0.6570412 1.0000000 0.0000000
0.7023250 1.0000000 0.0000000
0.7476089 1.0000000 0.0000000
0.7928928 1.0000000 0.0000000
0.8381766 1.0000000 0.0000000
0.8834605 1.0000000 0.0000000
0.9287444 1.0000000 0.0000000
0.9740282 1.0000000 0.0000000
1.0000000 1.0000000 0.0000000
1.0000000 1.0000000 0.0000000
1.0000000 1.0000000 0.0000000
1.0000000 1.0000000 0.0000000
1.0000000 1.0000000 0.0000000
1.0000000 1.0000000 0.0000000
1.0000000 1.0000000 0.0000000
1.0000000 1.0000000 0.0000000
1.0000000 1.0000000 0.0000000
1.0000000 1.0000000 0.0000000
1.0000000 1.0000000 0.0000000
1.0000000 1.0000000 0.0000000
1.0000000 1.0000000 0.0000000
0.1188000 1.0000000 0.0000000
0.1640839 1.0000000 0.0000000
0.2093678 1.0000000 0.0000000
0.2546516 1.0000000 0.0000000
0.2999355 1.0000000 0.0000000
0.3452194 1.0000000 0.0000000
0.3905032 1.0000000 0.0000000
0.4357871 1.0000000 0.0000000
0.4810709 1.0000000 0.0000000
0.5263548 1.0000000 0.0000000
0.5716387 1.0000000 0.0000000
0.6169225 1.0000000 0.0000000
0.6622064 1.0000000 0.0000000
0.7074903 1.0000000 0.0000000
0.7527741 1.0000000 0.0000000
0.7980580 1.0000000 0.0000000
0.8433419 1.0000000 0.0000000
0.8886257 1.0000000 0.0000000
0.9339096 1.0000000 0.0000000
0.9791935 1.0000000 0.0000000
1.0000000 1.0000000 0.0000000
1.0000000 1.0000000 0.0000000
1.0000000 1.0000000 0.0000000
1.0000000 1.0000000 0.0000000
1.0000000 1.0000000 0.0000000
1.0000000 1.0000000 0.0000000
1.0000000 1.0000000 0.0000000
1.0000000 1.0000000 0.0000000
1.0000000 1.0000000 0.0000000
1.0000000 1.0000000 0.0000000
1.0000000 1.0000000 0.0000000
1.0000000 1.0000000 0.0000000
1.0000000 1.0000000 0.0000000
0.1239652 1.0000000 0.0000000
0.1692491 1.0000000 0.0000000
0.2145330 1.0000000 0.0000000
0.2598168 1.0000000 0.0000000
0.3051007 1.0000000 0.0000000
0.3503846 1.0000000 0.0000000
